; generated by PrusaSlicer 2.4.2+win64 on 2022-07-28 at 19:45:37 UTC

; 

; external perimeters extrusion width = 0.45mm
; perimeters extrusion width = 0.45mm
; infill extrusion width = 0.45mm
; solid infill extrusion width = 0.45mm
; top infill extrusion width = 0.40mm
; support material extrusion width = 0.35mm
; first layer extrusion width = 0.42mm

M73 P0 R237
M73 Q0 S238
M201 X1000 Y1000 Z200 E5000 ; sets maximum accelerations, mm/sec^2
M203 X200 Y200 Z12 E120 ; sets maximum feedrates, mm / sec
M204 P1250 R1250 T1250 ; sets acceleration (P, T) and retract acceleration (R), mm/sec^2
M205 X8.00 Y8.00 Z0.40 E4.50 ; sets the jerk limits, mm/sec
M205 S0 T0 ; sets the minimum extruding and travel feed rate, mm/sec
M107
;TYPE:Custom
M862.3 P "MK3S" ; printer model check
M862.1 P0.4 ; nozzle diameter check
M115 U3.10.1 ; tell printer latest fw version
G90 ; use absolute coordinates
M83 ; extruder relative mode
M104 S215 ; set extruder temp
M140 S60 ; set bed temp
M190 S60 ; wait for bed temp
M109 S215 ; wait for extruder temp
G28 W ; home all without mesh bed level
G80 ; mesh bed leveling
G1 Z0.2 F720
G1 Y-3 F1000 ; go outside print area
G92 E0
G1 X60 E9 F1000 ; intro line
G1 X100 E12.5 F1000 ; intro line
G92 E0
M221 S95

; Don't change E values below. Excessive value can damage the printer.
M907 E430 ; set extruder motor current
G21 ; set units to millimeters
G90 ; use absolute coordinates
M83 ; use relative distances for extrusion
M900 K0.05 ; Filament gcode LA 1.5
M900 K30 ; Filament gcode LA 1.0
M107
;LAYER_CHANGE
;Z:0.2
;HEIGHT:0.2
;BEFORE_LAYER_CHANGE
G92 E0.0
;0.2


G1 E-.8 F2100
G1 Z.4 F720
;AFTER_LAYER_CHANGE
;0.2
G1 X21.333 Y21.333 F10800
G1 Z.2 F720
G1 E.8 F2100
M204 S800
;TYPE:Skirt/Brim
;WIDTH:0.42
G1 F1200
G1 X29.049 Y13.617 E.34215
G1 X30.402 Y12.82 E.04923
G1 X31.263 Y12.7 E.02726
G1 X35.488 Y12.7 E.13247
G1 X37.008 Y13.093 E.04923
G1 X37.691 Y13.605 E.02677
G1 X119.588 Y94.696 E3.61361
G1 X182.572 Y164.671 E2.9519
M73 Q0 S237
G1 X183.376 Y166.766 E.07035
M73 P0 R236
G1 X183.376 Y175.159 E.26316
G1 X182.983 Y176.679 E.04923
G1 X182.459 Y177.373 E.02726
G1 X180.02 Y179.812 E.10815
G1 X178.667 Y180.609 E.04923
G1 X177.806 Y180.729 E.02726
G1 X164.756 Y180.729 E.40918
G1 X162.665 Y179.93 E.07017
G1 X95.014 Y119.27 E2.84898
G1 X13.614 Y37.7 E3.61318
G1 X12.819 Y36.346 E.04923
G1 X12.7 Y35.488 E.02716
G1 X12.7 Y31.263 E.13247
G1 X13.093 Y29.743 E.04923
G1 X13.617 Y29.049 E.02726
G1 X21.291 Y21.375 E.34027
M204 S1000
G1 X21.557 Y21.642 F10800
M204 S800
G1 F1200
G1 X29.316 Y13.883 E.34403
G1 X31.263 Y13.077 E.06609
G1 X35.488 Y13.077 E.13247
G1 X37.426 Y13.873 E.06569
G1 X119.322 Y94.962 E3.61355
G1 X182.292 Y164.924 E2.95128
G1 X182.999 Y166.766 E.06188
G1 X182.999 Y175.159 E.26316
G1 X182.192 Y177.107 E.06609
G1 X179.753 Y179.546 E.10815
G1 X177.806 Y180.352 E.06609
G1 X164.756 Y180.352 E.40918
G1 X162.917 Y179.649 E.06172
G1 X95.28 Y119.004 E2.84834
G1 X13.881 Y37.434 E3.61316
G1 X13.077 Y35.488 E.06601
G1 X13.077 Y31.263 E.13247
G1 X13.883 Y29.316 E.06609
G1 X21.515 Y21.684 E.33839
M204 S1000
G1 X21.781 Y21.951 F10800
M204 S800
G1 F1200
G1 X29.583 Y14.15 E.34592
G1 X31.263 Y13.454 E.05704
G1 X35.488 Y13.454 E.13247
G1 X37.161 Y14.141 E.05669
G1 X119.055 Y95.229 E3.61349
G1 X182.012 Y165.176 E2.95065
G1 X182.622 Y166.766 E.0534
G1 X182.622 Y175.159 E.26316
G1 X181.926 Y176.84 E.05704
G1 X179.487 Y179.279 E.10815
G1 X177.806 Y179.975 E.05704
G1 X164.756 Y179.975 E.40918
G1 X163.169 Y179.368 E.05327
G1 X95.547 Y118.737 E2.84769
G1 X14.148 Y37.167 E3.61315
M73 Q0 S236
G1 X13.454 Y35.488 E.05697
M73 P0 R235
G1 X13.454 Y31.263 E.13247
G1 X14.15 Y29.583 E.05704
G1 X21.739 Y21.993 E.33651
M204 S1000
;WIPE_START
G1 F8640
G1 X24.066 Y19.666 E-.76
;WIPE_END
G1 E-.04 F2100
G1 Z.6 F720
G1 X23.624 Y23.88 F10800
G1 Z.2 F720
G1 E.8 F2100
M204 S800
G1 F1200
G1 X30.268 Y17.241 E.2945
G1 X31.161 Y16.642 E.03372
G1 X32.143 Y16.254 E.0331
G1 X34.364 Y16.2 E.06965
G1 X35.314 Y16.517 E.0314
G1 X36.484 Y17.231 E.04299
G1 X110.384 Y91.239 E3.27923
G1 X111.126 Y92.626 E.0493
G1 X111.406 Y94.148 E.04853
G1 X111.171 Y95.725 E.04999
G1 X110.472 Y97.087 E.04802
G1 X96.979 Y110.554 E.59771
G1 X96.367 Y110.904 E.0221
G1 X95.65 Y111.196 E.02429
G1 X93.735 Y111.376 E.06031
G1 X93.307 Y111.301 E.0136
G1 X92.252 Y110.967 E.03471
G1 X90.727 Y109.98 E.05696
G1 X16.885 Y36.02 E3.27688
G1 X16.428 Y35.095 E.03237
G1 X16.147 Y34.011 E.03509
G1 X16.139 Y32.849 E.03645
G1 X16.392 Y31.742 E.03561
G1 X17.215 Y30.284 E.0525
G1 X23.582 Y23.922 E.28219
M204 S1000
G1 X23.847 Y24.188 F10800
M204 S800
G1 F1200
G1 X30.494 Y17.543 E.29471
G1 X31.319 Y16.985 E.03123
G1 X32.25 Y16.617 E.03139
G1 X34.277 Y16.568 E.06356
G1 X35.138 Y16.851 E.0284
G1 X36.234 Y17.514 E.04017
G1 X110.066 Y91.443 E3.27598
G1 X110.76 Y92.724 E.04568
G1 X111.029 Y94.184 E.04656
G1 X110.803 Y95.635 E.04604
G1 X110.151 Y96.887 E.04426
G1 X96.77 Y110.24 E.59271
G1 X96.213 Y110.559 E.02013
G1 X95.533 Y110.836 E.02301
G1 X93.773 Y111 E.05542
G1 X93.408 Y110.937 E.01161
G1 X92.39 Y110.615 E.03349
G1 X90.98 Y109.699 E.05272
G1 X17.209 Y35.824 E3.27343
G1 X16.788 Y34.981 E.02957
G1 X16.518 Y33.94 E.0337
G1 X16.516 Y32.87 E.03357
G1 X16.734 Y31.901 E.03112
G1 X17.501 Y30.532 E.0492
G1 X23.805 Y24.23 E.27948
M204 S1000
G1 X24.07 Y24.496 F10800
M204 S800
G1 F1200
G1 X30.722 Y17.844 E.29495
G1 X31.478 Y17.328 E.02871
G1 X32.358 Y16.98 E.02967
G1 X34.192 Y16.937 E.05752
G1 X34.963 Y17.186 E.0254
G1 X35.983 Y17.798 E.0373
G1 X109.749 Y91.649 E3.27278
G1 X110.395 Y92.822 E.04201
G1 X110.652 Y94.22 E.04455
G1 X110.436 Y95.543 E.04203
G1 X109.832 Y96.685 E.04053
G1 X96.56 Y109.926 E.58779
G1 X96.059 Y110.215 E.01815
G1 X95.417 Y110.476 E.02172
G1 X93.811 Y110.624 E.05057
G1 X93.509 Y110.574 E.00959
G1 X92.529 Y110.263 E.03225
G1 X91.233 Y109.419 E.04849
G1 X17.532 Y35.627 E3.27004
G1 X17.147 Y34.866 E.02674
G1 X16.889 Y33.87 E.03227
G1 X16.893 Y32.892 E.03066
G1 X17.077 Y32.059 E.02673
G1 X17.786 Y30.78 E.04587
G1 X24.028 Y24.538 E.27675
M204 S1000
G1 X24.294 Y24.805 F10800
M204 S800
G1 F1200
G1 X30.976 Y18.124 E.29626
G1 X31.671 Y17.652 E.02635
G1 X32.464 Y17.343 E.02667
G1 X34.108 Y17.306 E.05158
G1 X34.79 Y17.521 E.02242
G1 X35.734 Y18.081 E.03439
G1 X109.433 Y91.856 E3.26962
G1 X110.031 Y92.925 E.03839
G1 X110.275 Y94.195 E.04057
G1 X110.088 Y95.395 E.03806
G1 X109.512 Y96.484 E.03864
G1 X96.349 Y109.612 E.58289
G1 X95.904 Y109.871 E.01615
G1 X95.301 Y110.117 E.02042
G1 X93.847 Y110.248 E.04577
G1 X93.609 Y110.21 E.00755
G1 X92.667 Y109.912 E.03098
G1 X91.486 Y109.139 E.04425
G1 X17.854 Y35.429 E3.26669
G1 X17.507 Y34.751 E.02389
M73 Q0 S235
G1 X17.26 Y33.8 E.03081
G1 X17.27 Y32.915 E.02774
G1 X17.422 Y32.216 E.02243
G1 X18.072 Y31.027 E.0425
G1 X24.252 Y24.847 E.27401
M204 S1000
G1 X24.518 Y25.114 F10800
M204 S800
G1 F1200
G1 X31.229 Y18.403 E.29756
G1 X31.863 Y17.977 E.02395
M73 P0 R234
G1 X32.568 Y17.707 E.02367
G1 X34.027 Y17.675 E.04575
G1 X34.619 Y17.858 E.01945
G1 X35.484 Y18.365 E.03143
G1 X109.118 Y92.065 E3.26651
G1 X109.668 Y93.03 E.03481
G1 X109.897 Y94.171 E.0365
G1 X109.721 Y95.304 E.03595
G1 X109.194 Y96.28 E.03477
G1 X96.138 Y109.299 E.57811
G1 X95.749 Y109.527 E.01413
G1 X95.185 Y109.757 E.01909
G1 X93.88 Y109.872 E.04106
G1 X93.708 Y109.846 E.00547
G1 X92.806 Y109.56 E.02967
G1 X91.739 Y108.859 E.04002
G1 X18.175 Y35.23 E3.26341
G1 X17.867 Y34.635 E.021
M73 P1 R234
M73 Q1 S235
G1 X17.632 Y33.731 E.0293
G1 X17.646 Y32.94 E.02479
G1 X17.767 Y32.37 E.01826
G1 X18.359 Y31.274 E.03907
G1 X24.476 Y25.156 E.27126
M204 S1000
G1 X24.743 Y25.423 F10800
M204 S800
G1 F1200
G1 X31.483 Y18.683 E.29887
G1 X32.019 Y18.322 E.02025
G1 X32.673 Y18.071 E.02196
G1 X33.947 Y18.045 E.03997
G1 X34.451 Y18.196 E.0165
G1 X35.236 Y18.649 E.02841
G1 X108.805 Y92.276 E3.26346
G1 X109.306 Y93.139 E.03127
G1 X109.519 Y94.148 E.03234
G1 X109.353 Y95.213 E.03378
G1 X108.877 Y96.073 E.03085
G1 X95.925 Y108.987 E.57346
G1 X95.593 Y109.183 E.01208
G1 X95.069 Y109.396 E.01774
G1 X93.91 Y109.496 E.03647
G1 X93.805 Y109.481 E.00332
G1 X92.945 Y109.209 E.0283
G1 X91.993 Y108.579 E.03579
G1 X18.495 Y35.028 E3.26019
G1 X18.226 Y34.519 E.01807
G1 X18.004 Y33.662 E.02774
G1 X18.023 Y32.967 E.02182
G1 X18.113 Y32.522 E.01423
G1 X18.646 Y31.52 E.03557
G1 X24.7 Y25.465 E.26848
M204 S1000
G1 X24.967 Y25.732 F10800
M204 S800
G1 F1200
G1 X31.736 Y18.963 E.30016
G1 X32.209 Y18.648 E.01781
G1 X32.774 Y18.435 E.01895
G1 X33.87 Y18.415 E.03434
G1 X34.285 Y18.536 E.01357
G1 X34.987 Y18.934 E.02532
G1 X108.491 Y92.487 E3.26035
G1 X108.963 Y93.301 E.02951
G1 X109.142 Y94.187 E.02835
G1 X108.987 Y95.116 E.02953
G1 X108.563 Y95.864 E.02699
G1 X95.711 Y108.676 E.56896
G1 X95.437 Y108.839 E.01
G1 X94.954 Y109.036 E.01636
G1 X93.933 Y109.119 E.03213
G1 X93.084 Y108.857 E.02784
G1 X92.247 Y108.299 E.03156
G1 X18.813 Y34.825 E3.25707
G1 X18.585 Y34.401 E.01509
G1 X18.376 Y33.595 E.0261
G1 X18.399 Y32.995 E.01884
G1 X18.461 Y32.67 E.01037
G1 X18.933 Y31.766 E.03198
G1 X24.924 Y25.774 E.26567
M204 S1000
G1 X25.191 Y26.041 F10800
M204 S800
G1 F1200
G1 X31.989 Y19.244 E.30141
G1 X32.397 Y18.976 E.01531
G1 X32.874 Y18.8 E.01595
G1 X33.795 Y18.785 E.02889
G1 X34.123 Y18.877 E.01067
G1 X34.74 Y19.22 E.02214
G1 X108.179 Y92.7 E3.25733
G1 X108.602 Y93.412 E.02596
G1 X108.764 Y94.166 E.02418
G1 X108.641 Y94.963 E.0253
G1 X108.277 Y95.616 E.02344
G1 X95.496 Y108.365 E.56604
G1 X95.281 Y108.496 E.00789
G1 X94.84 Y108.675 E.01491
G1 X93.959 Y108.739 E.02771
G1 X93.269 Y108.527 E.02265
G1 X92.5 Y108.019 E.0289
G1 X19.13 Y34.619 E3.25401
G1 X18.943 Y34.279 E.01216
G1 X18.754 Y33.58 E.0227
G1 X18.775 Y33.025 E.01744
G1 X18.825 Y32.77 E.00814
G1 X19.22 Y32.012 E.02678
G1 X25.149 Y26.084 E.26289
M204 S1000
G1 X25.415 Y26.35 F10800
M204 S800
G1 F1200
G1 X32.241 Y19.525 E.30264
G1 X32.582 Y19.305 E.01273
G1 X32.97 Y19.165 E.01295
G1 X33.724 Y19.156 E.02364
G1 X33.965 Y19.22 E.00779
G1 X34.493 Y19.507 E.01885
G1 X107.87 Y92.916 E3.25438
G1 X108.243 Y93.529 E.02248
M73 Q1 S234
G1 X108.386 Y94.15 E.02001
G1 X108.293 Y94.815 E.02104
G1 X107.991 Y95.369 E.0198
G1 X95.278 Y108.057 E.56316
G1 X95.123 Y108.153 E.00571
G1 X94.725 Y108.315 E.01347
G1 X94.032 Y108.368 E.0218
G1 X93.451 Y108.196 E.01899
G1 X92.752 Y107.738 E.02619
G1 X19.444 Y34.41 E3.25106
G1 X19.298 Y34.153 E.00927
M73 P1 R233
G1 X19.132 Y33.564 E.01918
G1 X19.151 Y33.055 E.01596
G1 X19.189 Y32.872 E.00588
G1 X19.507 Y32.258 E.02167
G1 X25.373 Y26.393 E.26009
M204 S1000
G1 X25.64 Y26.659 F10800
M204 S800
G1 F1200
G1 X32.493 Y19.805 E.30391
G1 X32.729 Y19.652 E.00882
G1 X33.067 Y19.531 E.01124
G1 X33.659 Y19.528 E.01855
G1 X33.812 Y19.565 E.00496
G1 X34.247 Y19.794 E.01541
G1 X107.562 Y93.135 E3.25148
G1 X107.885 Y93.652 E.0191
G1 X108.008 Y94.142 E.01586
G1 X107.943 Y94.672 E.01673
G1 X107.704 Y95.123 E.01603
G1 X95.056 Y107.752 E.56038
G1 X94.963 Y107.811 E.00345
G1 X94.612 Y107.954 E.01188
G1 X94.044 Y107.99 E.01786
G1 X93.634 Y107.865 E.01343
G1 X93.005 Y107.457 E.02352
G1 X19.756 Y34.197 E3.24823
G1 X19.652 Y34.02 E.00644
G1 X19.51 Y33.546 E.01552
G1 X19.527 Y33.087 E.01438
G1 X19.552 Y32.977 E.00355
G1 X19.795 Y32.504 E.01667
G1 X25.597 Y26.702 E.25728
M204 S1000
G1 X25.864 Y26.968 F10800
M204 S800
G1 F1200
G1 X32.746 Y20.086 E.30519
G1 X32.878 Y20 E.00492
G1 X33.161 Y19.898 E.00942
G1 X33.631 Y19.904 E.01474
G1 X34.003 Y20.083 E.01295
G1 X107.257 Y93.357 E3.24864
G1 X107.531 Y93.782 E.01585
G1 X107.63 Y94.143 E.01173
G1 X107.589 Y94.535 E.01237
G1 X107.415 Y94.879 E.01208
G1 X94.827 Y107.452 E.55784
G1 X94.498 Y107.593 E.01123
G1 X94.114 Y107.618 E.01206
G1 X93.812 Y107.532 E.00985
G1 X93.256 Y107.176 E.0207
G1 X20.064 Y33.978 E3.2456
G1 X20.002 Y33.879 E.00367
G1 X19.888 Y33.525 E.01165
G1 X19.912 Y33.089 E.01371
G1 X20.083 Y32.749 E.01193
G1 X25.821 Y27.011 E.25443
M204 S1000
G1 X26.088 Y27.277 F10800
M204 S800
G1 F1200
G1 X33.001 Y20.365 E.30652
G1 X33.252 Y20.266 E.00845
G1 X33.557 Y20.278 E.00957
G1 X33.761 Y20.375 E.00709
G1 X106.951 Y93.578 E3.24566
G1 X107.199 Y93.963 E.01436
G1 X107.252 Y94.151 E.00613
G1 X107.233 Y94.409 E.00811
G1 X107.124 Y94.636 E.0079
G1 X94.598 Y107.148 E.55509
G1 X94.429 Y107.222 E.00579
G1 X94.173 Y107.245 E.00806
G1 X93.986 Y107.196 E.00605
G1 X93.508 Y106.894 E.01774
G1 X20.365 Y33.751 E3.24329
G1 X20.266 Y33.5 E.00845
G1 X20.278 Y33.195 E.00957
G1 X20.375 Y32.991 E.00709
G1 X26.046 Y27.32 E.25145
M204 S1000
G1 X26.312 Y27.586 F10800
M204 S800
G1 F1200
G1 X33.228 Y20.671 E.30664
G1 X33.297 Y20.642 E.00235
G1 X33.455 Y20.642 E.00495
G1 X33.524 Y20.671 E.00235
G1 X106.645 Y93.799 E3.24246
G1 X106.862 Y94.137 E.0126
G1 X106.877 Y94.2 E.00203
G1 X106.863 Y94.334 E.00424
G1 X106.835 Y94.393 E.00203
G1 X94.402 Y106.825 E.5513
G1 X94.345 Y106.853 E.00198
G1 X94.214 Y106.869 E.00414
G1 X94.153 Y106.856 E.00196
G1 X93.758 Y106.612 E.01455
G1 X20.671 Y33.524 E3.24082
G1 X20.642 Y33.455 E.00235
G1 X20.642 Y33.297 E.00495
G1 X20.671 Y33.228 E.00235
G1 X26.27 Y27.629 E.24826
M204 S1000
; printing object KNIFE.stl id:0 copy 0
;WIPE_START
G1 F8640
G1 X28.597 Y25.301 E-.76
;WIPE_END
G1 E-.04 F2100
G1 Z.6 F720
G1 X104.803 Y103.744 F10800
G1 Z.2 F720
G1 E.8 F2100
M204 S800
;TYPE:Support material interface
;WIDTH:0.35
G1 F1200
G1 X104.803 Y104.599 E.02183
G1 X104.274 Y104.599 E.0135
G1 X104.274 Y104.273 E.00834
G1 X103.948 Y104.599 E.01179
G1 X104.11 Y104.599 E.00414
M204 S1000
;WIPE_START
G1 F8640
G1 X103.948 Y104.599 E-.03747
G1 X104.274 Y104.273 E-.10664
G1 X104.274 Y104.599 E-.0754
G1 X104.803 Y104.599 E-.12204
G1 X104.803 Y103.744 E-.19745
;WIPE_END
G1 E-.261 F2100
G1 Z.6 F720
G1 X102.324 Y106.928 F10800
G1 Z.2 F720
G1 E.8 F2100
M204 S800
G1 F1200
G1 X102.589 Y106.928 E.00675
G1 X102.589 Y105.958 E.02476
G1 X102.16 Y106.387 E.01548
G1 X102.16 Y106.928 E.01381
G1 X101.631 Y106.915 E.0135
M204 S1000
;WIPE_START
G1 F8640
G1 X102.16 Y106.928 E-.12207
G1 X102.16 Y106.387 E-.12491
G1 X102.589 Y105.958 E-.14002
G1 X102.589 Y106.928 E-.22392
G1 X102.324 Y106.928 E-.06108
;WIPE_END
G1 E-.128 F2100
G1 Z.6 F720
G1 X100.21 Y109.256 F10800
M73 Q1 S233
G1 Z.2 F720
G1 E.8 F2100
M204 S800
G1 F1200
G1 X100.26 Y109.256 E.00128
G1 X100.26 Y108.286 E.02476
G1 X100.046 Y108.501 E.00774
G1 X100.046 Y109.256 E.01929
G1 X99.517 Y109.256 E.0135
G1 X99.517 Y109.029 E.00579
G1 X99.291 Y109.256 E.00819
G1 X99.353 Y109.256 E.0016
M204 S1000
;WIPE_START
G1 F8640
G1 X99.291 Y109.256 E-.01444
G1 X99.517 Y109.029 E-.07406
G1 X99.517 Y109.256 E-.05237
G1 X100.046 Y109.256 E-.12204
G1 X100.046 Y108.501 E-.17441
G1 X100.26 Y108.286 E-.07001
G1 X100.26 Y109.256 E-.22392
G1 X100.21 Y109.256 E-.01158
;WIPE_END
G1 E-.05718 F2100
G1 Z.6 F720
G1 X106.388 Y102.158 F10800
G1 Z.2 F720
G1 E.8 F2100
M204 S800
G1 F1200
G1 X106.388 Y102.271 E.00286
G1 X106.917 Y102.271 E.0135
G1 X106.917 Y101.63 E.01636
G1 X107.246 Y101.301 E.01188
G1 X107.246 Y102.271 E.02476
G1 X107.081 Y102.271 E.00421
M204 S1000
;WIPE_START
G1 F8640
G1 X107.246 Y102.271 E-.03804
G1 X107.246 Y101.301 E-.22392
G1 X106.917 Y101.63 E-.10744
G1 X106.917 Y102.271 E-.14794
G1 X106.388 Y102.271 E-.12204
G1 X106.388 Y102.158 E-.0259
;WIPE_END
G1 E-.13471 F2100
G1 Z.6 F720
G1 X108.867 Y99.942 F10800
G1 Z.2 F720
G1 E.8 F2100
M204 S800
G1 F1200
G1 X108.605 Y99.942 E.00669
G1 X109.031 Y99.516 E.0154
G1 X109.031 Y99.942 E.01089
G1 X109.56 Y99.942 E.0135
G1 X109.56 Y98.987 E.02438
M204 S1000
;WIPE_START
G1 F8640
G1 X109.56 Y99.942 E-.22048
G1 X109.031 Y99.942 E-.12204
G1 X109.031 Y99.516 E-.09844
G1 X108.605 Y99.942 E-.13922
G1 X108.867 Y99.942 E-.06051
;WIPE_END
G1 E-.1593 F2100
G1 Z.6 F720
G1 X114.857 Y96.988 F10800
G1 Z.2 F720
G1 E.8 F2100
M204 S800
;TYPE:Support material
;WIDTH:0.42
G1 F1200
G1 X117.186 Y96.988 E.07301
G1 X117.186 Y101.645 E.14602
G1 X119.514 Y101.645 E.07301
G1 X119.514 Y106.302 E.14602
G1 X121.843 Y106.302 E.07301
G1 X121.843 Y108.631 E.07301
G1 X124.171 Y108.631 E.07301
G1 X124.171 Y113.288 E.14602
G1 X126.5 Y113.288 E.07301
G1 X126.5 Y115.616 E.07301
G1 X128.828 Y115.616 E.07301
M73 P1 R232
G1 X128.828 Y117.945 E.07301
G1 X131.157 Y117.945 E.07301
G1 X131.157 Y120.273 E.07301
G1 X133.485 Y120.273 E.07301
