; generated by PrusaSlicer 2.4.2+win64 on 2022-07-28 at 16:24:47 UTC

; 

; external perimeters extrusion width = 0.45mm
; perimeters extrusion width = 0.45mm
; infill extrusion width = 0.45mm
; solid infill extrusion width = 0.45mm
; top infill extrusion width = 0.40mm
; support material extrusion width = 0.40mm
; first layer extrusion width = 0.70mm

M107
M104 S200 ; set temperature
;TYPE:Custom
G28 ; home all axes
G1 Z5 F5000 ; lift nozzle
M109 S200 ; set temperature and wait for it to be reached
G21 ; set units to millimeters
G90 ; use absolute coordinates
M82 ; use absolute distances for extrusion
G92 E0
; Filament gcode
M107
;LAYER_CHANGE
;Z:0.35
;HEIGHT:0.35
G1 Z.35 F7800
G1 E-2 F2400
G92 E0
G1 X28.617 Y29.921 F7800
G1 E2 F2400
;TYPE:Skirt/Brim
;WIDTH:0.7
G1 F1800
G1 X30.416 Y28.201 E2.22634
G1 X32.322 Y26.926 E2.43488
G1 X34.549 Y26.378 E2.64343
G1 X36.83 Y26.623 E2.85197
G1 X39.483 Y28.116 E3.12881
G1 X118.88 Y101.257 E12.94479
G1 X119.464 Y101.869 E13.02168
G1 X179.012 Y172.759 E21.44012
G1 X180.161 Y174.744 E21.64866
G1 X180.564 Y177.02 E21.85885
G1 X180.564 Y188.327 E22.88696
G1 X180.167 Y190.586 E23.09551
G1 X178.624 Y193.012 E23.35693
G1 X175.788 Y195.847 E23.72158
G1 X173.91 Y197.164 E23.93012
G1 X171.104 Y197.788 E24.19155
G1 X159.797 Y197.788 E25.21966
G1 X157.538 Y197.391 E25.4282
G1 X155.223 Y195.955 E25.67594
G1 X92.839 Y136.407 E33.51789
G1 X89.893 Y133.464 E33.89654
G1 X16.99 Y49.781 E43.98835
G1 X15.806 Y47.816 E44.19689
G1 X15.363 Y45.566 E44.40543
G1 X15.713 Y43.3 E44.61398
G1 X17.407 Y40.642 E44.90058
G1 X28.573 Y29.963 E46.30552
G1 E44.30552 F2400
G92 E0
G1 X35.12 Y35.254 F7800
G1 E2 F2400
;TYPE:Support material
G1 F1800
G1 X104.446 Y107.74 E11.12033
G1 X93.57 Y118.142 E12.48882
G1 X24.072 Y45.476 E21.63179
G1 X34.948 Y35.074 E23.00028
G1 X35.055 Y35.186 E23.0144
G1 X32.158 Y43.71 F7800
G1 F1800
G1 X32.158 Y46.582 E23.27549
G1 X34.994 Y46.582 E23.53334
G1 X34.994 Y49.418 E23.79118
G1 X37.829 Y49.418 E24.04902
G1 X37.829 Y52.253 E24.30686
G1 X40.665 Y52.253 E24.5647
G1 X40.665 Y55.089 E24.82254
G1 X43.501 Y55.089 E25.08039
G1 X43.501 Y57.924 E25.33823
G1 X46.336 Y57.924 E25.59607
G1 X46.336 Y60.76 E25.85391
G1 X49.172 Y60.76 E26.11175
G1 X49.172 Y66.431 E26.62744
G1 X52.008 Y66.431 E26.88528
G1 X52.008 Y69.267 E27.14312
G1 X54.843 Y69.267 E27.40096
G1 X54.843 Y72.102 E27.6588
G1 X57.679 Y72.102 E27.91664
G1 X57.679 Y74.938 E28.17449
G1 X60.514 Y74.938 E28.43233
G1 X60.514 Y77.774 E28.69017
G1 X63.35 Y77.774 E28.94801
G1 X63.35 Y80.609 E29.20585
G1 X66.186 Y80.609 E29.4637
G1 X66.186 Y83.445 E29.72154
G1 X69.021 Y83.445 E29.97938
G1 X69.021 Y86.281 E30.23722
G1 X71.857 Y86.281 E30.49506
G1 X71.857 Y89.116 E30.7529
G1 X74.692 Y89.116 E31.01075
G1 X74.692 Y91.952 E31.26859
G1 X77.528 Y91.952 E31.52643
G1 X77.528 Y94.787 E31.78427
G1 X80.364 Y94.787 E32.04211
G1 X80.364 Y97.623 E32.29995
G1 X83.199 Y97.623 E32.5578
G1 X83.199 Y100.459 E32.81564
G1 X86.035 Y100.459 E33.07348
G1 X86.035 Y103.294 E33.33132
G1 X88.871 Y103.294 E33.58916
G1 X88.871 Y106.13 E33.847
G1 X91.706 Y106.13 E34.10485
G1 X91.706 Y108.966 E34.36269
G1 X97.413 Y108.966 E34.88163
G1 X97.413 Y106.094 E35.14272
G1 X94.578 Y106.094 E35.40057
G1 X94.578 Y103.258 E35.65841
G1 X91.742 Y103.258 E35.91625
G1 X91.742 Y100.423 E36.17409
G1 X88.906 Y100.423 E36.43193
G1 X88.906 Y97.587 E36.68978
G1 X86.071 Y97.587 E36.94762
G1 X86.071 Y94.752 E37.20546
G1 X83.235 Y94.752 E37.4633
G1 X83.235 Y91.916 E37.72114
G1 X80.4 Y91.916 E37.97898
G1 X80.4 Y89.08 E38.23683
G1 X77.564 Y89.08 E38.49467
G1 X77.564 Y86.245 E38.75251
G1 X74.728 Y86.245 E39.01035
G1 X74.728 Y83.409 E39.26819
G1 X71.893 Y83.409 E39.52603
G1 X71.893 Y80.574 E39.78388
G1 X69.057 Y80.574 E40.04172
G1 X69.057 Y77.738 E40.29956
G1 X66.221 Y77.738 E40.5574
G1 X66.221 Y74.902 E40.81524
G1 X63.386 Y74.902 E41.07308
G1 X63.386 Y72.067 E41.33093
G1 X60.55 Y72.067 E41.58877
G1 X60.55 Y69.231 E41.84661
G1 X57.715 Y69.231 E42.10445
G1 X57.715 Y66.395 E42.36229
G1 X54.879 Y66.395 E42.62013
G1 X54.879 Y63.56 E42.87798
G1 X52.043 Y63.56 E43.13582
G1 X52.043 Y60.724 E43.39366
G1 X49.208 Y60.724 E43.6515
G1 X49.208 Y57.889 E43.90934
G1 X46.372 Y57.889 E44.16718
G1 X46.372 Y55.053 E44.42503
G1 X43.536 Y55.053 E44.68287
G1 X43.536 Y49.382 E45.19855
G1 X40.701 Y49.382 E45.45639
G1 X40.701 Y46.546 E45.71423
G1 X37.865 Y46.546 E45.97208
G1 X37.865 Y43.71 E46.22992
G1 X32.252 Y43.71 E46.74033
G1 E44.74033 F2400
G92 E0
G1 X103.644 Y108.117 F7800
G1 E2 F2400
G1 F1800
G1 X103.644 Y107.715 E2.0366
G1 X102.95 Y106.989 E2.12795
G1 X102.95 Y108.392 E2.25556
G1 X102.256 Y109.056 E2.34292
G1 X102.256 Y106.263 E2.59694
G1 X101.561 Y105.537 E2.68828
G1 X101.561 Y109.72 E3.06868
G1 X100.867 Y110.385 E3.15604
G1 X100.867 Y104.811 E3.66284
G1 X100.173 Y104.085 E3.75419
G1 X100.173 Y111.049 E4.38738
G1 X99.478 Y111.713 E4.47474
G1 X99.478 Y103.359 E5.23433
G1 X98.784 Y102.633 E5.32567
G1 X98.784 Y112.377 E6.21165
G1 X98.09 Y113.041 E6.29901
G1 X98.09 Y101.907 E7.31139
G1 X97.395 Y101.181 E7.40273
G1 X97.395 Y105.532 E7.79832
G1 X96.701 Y105.532 E7.86146
G1 X96.701 Y100.455 E8.32306
G1 X96.007 Y99.729 E8.4144
G1 X96.007 Y105.532 E8.94202
G1 X95.312 Y105.532 E9.00515
G1 X95.312 Y99.003 E9.59878
G1 X94.618 Y98.277 E9.69012
G1 X94.618 Y102.696 E10.09192
G1 X93.924 Y102.696 E10.15505
G1 X93.924 Y97.551 E10.62286
G1 X93.229 Y96.825 E10.71421
G1 X93.229 Y102.696 E11.24803
G1 X92.535 Y102.696 E11.31116
G1 X92.535 Y96.099 E11.91099
G1 X91.841 Y95.373 E12.00234
G1 X91.841 Y99.86 E12.41034
G1 X91.146 Y99.86 E12.47348
G1 X91.146 Y94.647 E12.94749
G1 X90.452 Y93.921 E13.03884
G1 X90.452 Y99.86 E13.57886
G1 X89.758 Y99.86 E13.642
G1 X89.758 Y93.196 E14.24804
G1 X89.063 Y92.47 E14.33938
G1 X89.063 Y97.025 E14.75359
G1 X88.369 Y97.025 E14.81673
G1 X88.369 Y91.744 E15.29695
G1 X87.675 Y91.018 E15.38829
G1 X87.675 Y97.025 E15.93453
G1 X86.981 Y97.025 E15.99766
G1 X86.981 Y90.292 E16.60991
G1 X86.286 Y89.566 E16.70125
G1 X86.286 Y94.189 E17.12167
G1 X85.592 Y94.189 E17.1848
G1 X85.592 Y88.84 E17.67123
G1 X84.898 Y88.114 E17.76257
G1 X84.898 Y94.189 E18.31502
G1 X84.203 Y94.189 E18.37815
G1 X84.203 Y87.388 E18.9966
G1 X83.509 Y86.662 E19.08795
G1 X83.509 Y91.354 E19.51457
G1 X82.815 Y91.354 E19.5777
G1 X82.815 Y85.936 E20.07034
G1 X82.12 Y85.21 E20.16168
G1 X82.12 Y91.354 E20.72033
G1 X81.426 Y91.354 E20.78347
G1 X81.426 Y84.484 E21.40813
G1 X80.732 Y83.758 E21.49947
G1 X80.732 Y88.518 E21.9323
G1 X80.037 Y88.518 E21.99543
G1 X80.037 Y83.032 E22.49428
G1 X79.343 Y82.306 E22.58562
G1 X79.343 Y88.518 E23.15047
G1 X78.649 Y88.518 E23.21361
G1 X78.649 Y81.58 E23.84447
G1 X77.954 Y80.854 E23.93582
G1 X77.954 Y85.682 E24.37485
G1 X77.26 Y85.682 E24.43799
G1 X77.26 Y80.128 E24.94304
G1 X76.566 Y79.402 E25.03438
G1 X76.566 Y85.682 E25.60544
G1 X75.871 Y85.682 E25.66858
G1 X75.871 Y78.676 E26.30565
G1 X75.177 Y77.95 E26.39699
G1 X75.177 Y82.847 E26.84224
G1 X74.483 Y82.847 E26.90537
G1 X74.483 Y77.224 E27.41663
G1 X73.788 Y76.498 E27.50797
G1 X73.788 Y82.847 E28.08524
G1 X73.094 Y82.847 E28.14837
G1 X73.094 Y75.772 E28.79165
G1 X72.4 Y75.046 E28.88299
G1 X72.4 Y80.011 E29.33444
G1 X71.705 Y80.011 E29.39758
G1 X71.705 Y74.32 E29.91504
G1 X71.011 Y73.594 E30.00638
G1 X71.011 Y80.011 E30.58986
G1 X70.317 Y80.011 E30.65299
G1 X70.317 Y72.868 E31.30248
G1 X69.623 Y72.142 E31.39382
G1 X69.619 Y80.011 E32.10932
G1 X69.619 Y77.175 E32.36716
G1 X68.928 Y77.175 E32.43002
G1 X68.928 Y71.416 E32.95369
G1 X68.234 Y70.69 E33.04503
G1 X68.234 Y77.175 E33.63471
G1 X67.54 Y77.175 E33.69785
G1 X67.54 Y69.964 E34.35354
G1 X66.845 Y69.239 E34.44488
G1 X66.845 Y77.175 E35.16659
G1 X66.784 Y77.175 E35.17217
G1 X66.784 Y74.34 E35.43001
G1 X66.151 Y74.34 E35.48756
G1 X66.151 Y68.513 E36.01744
G1 X65.457 Y67.787 E36.10878
G1 X65.457 Y74.34 E36.70467
G1 X64.762 Y74.34 E36.7678
G1 X64.762 Y67.061 E37.4297
G1 X64.068 Y66.335 E37.52105
G1 X64.068 Y74.34 E38.24896
G1 X63.948 Y74.34 E38.25984
G1 X63.948 Y71.504 E38.51768
G1 X63.374 Y71.504 E38.56993
G1 X63.374 Y65.609 E39.10601
G1 X62.679 Y64.883 E39.19736
G1 X62.679 Y71.504 E39.79945
G1 X61.985 Y71.504 E39.86259
G1 X61.985 Y64.157 E40.53069
G1 X61.291 Y63.431 E40.62204
G1 X61.291 Y71.504 E41.35615
G1 X61.113 Y71.504 E41.37234
G1 X61.113 Y68.669 E41.63018
G1 X60.596 Y68.669 E41.67713
G1 X60.596 Y62.705 E42.21942
G1 X59.902 Y61.979 E42.31076
G1 X59.902 Y68.669 E42.91906
G1 X59.208 Y68.669 E42.9822
G1 X59.208 Y61.253 E43.65651
G1 X58.513 Y60.527 E43.74785
G1 X58.513 Y68.669 E44.48818
G1 X58.277 Y68.669 E44.50967
G1 X58.277 Y65.833 E44.76751
G1 X57.819 Y65.833 E44.80915
G1 X57.819 Y59.801 E45.35765
G1 X57.125 Y59.075 E45.44899
G1 X57.125 Y65.833 E46.0635
G1 X56.43 Y65.833 E46.12663
G1 X56.43 Y58.349 E46.80715
G1 X55.736 Y57.623 E46.89849
G1 X55.736 Y65.833 E47.64502
G1 X55.441 Y65.833 E47.67182
G1 X55.441 Y62.997 E47.92967
G1 X55.042 Y62.997 E47.966
G1 X55.042 Y56.897 E48.5207
G1 X54.347 Y56.171 E48.61205
G1 X54.347 Y62.997 E49.23276
G1 X53.653 Y62.997 E49.29589
G1 X53.653 Y55.445 E49.98262
G1 X52.959 Y54.719 E50.07396
G1 X52.959 Y62.997 E50.8267
G1 X52.606 Y62.997 E50.8588
G1 X52.606 Y60.162 E51.11665
G1 X52.264 Y60.162 E51.14768
G1 X52.264 Y53.993 E51.70858
G1 X51.57 Y53.267 E51.79993
G1 X51.57 Y60.162 E52.42685
G1 X50.876 Y60.162 E52.48998
G1 X50.876 Y52.541 E53.18291
G1 X50.182 Y51.815 E53.27426
G1 X50.182 Y60.162 E54.0332
G1 X49.77 Y60.162 E54.07061
G1 X49.77 Y57.326 E54.32845
G1 X49.487 Y57.326 E54.35418
G1 X49.487 Y51.089 E54.92129
G1 X48.793 Y50.363 E55.01264
G1 X48.793 Y57.326 E55.64576
G1 X48.099 Y57.326 E55.7089
G1 X48.099 Y49.637 E56.40804
G1 X47.404 Y48.911 E56.49938
G1 X47.404 Y57.326 E57.26453
G1 X46.935 Y57.326 E57.30724
G1 X46.935 Y54.491 E57.56508
G1 X46.71 Y54.491 E57.58551
G1 X46.71 Y48.185 E58.15883
G1 X46.016 Y47.459 E58.25017
G1 X46.016 Y54.491 E58.8895
G1 X45.321 Y54.491 E58.95264
G1 X45.321 Y46.733 E59.65798
G1 X44.627 Y46.008 E59.74933
G1 X44.627 Y54.491 E60.52068
G1 X44.099 Y54.491 E60.5687
G1 X44.099 Y48.819 E61.08438
G1 X43.933 Y48.819 E61.0995
G1 X43.933 Y45.282 E61.42119
G1 X43.238 Y44.556 E61.51253
G1 X43.238 Y48.819 E61.90023
G1 X42.544 Y48.819 E61.96336
G1 X42.544 Y43.83 E62.41707
G1 X41.85 Y43.104 E62.50842
G1 X41.85 Y48.819 E63.02814
G1 X41.263 Y48.819 E63.08146
G1 X41.263 Y45.984 E63.3393
G1 X41.155 Y45.984 E63.34912
G1 X41.155 Y42.378 E63.67701
G1 X40.461 Y41.652 E63.76835
G1 X40.461 Y45.984 E64.16226
G1 X39.767 Y45.984 E64.22539
G1 X39.767 Y40.926 E64.68531
G1 X39.072 Y40.2 E64.77665
G1 X39.072 Y45.984 E65.30258
G1 X38.428 Y45.984 E65.36121
G1 X38.428 Y43.148 E65.61905
G1 X38.378 Y43.148 E65.62356
G1 X38.378 Y39.474 E65.95766
G1 X37.684 Y38.748 E66.049
G1 X37.684 Y43.148 E66.44911
G1 X36.989 Y43.148 E66.51224
G1 X36.989 Y38.022 E66.97837
G1 X36.295 Y37.296 E67.06971
G1 X36.295 Y43.148 E67.60185
G1 X35.601 Y43.148 E67.66498
G1 X35.601 Y36.57 E68.26313
G1 X34.93 Y35.869 E68.35133
G1 X34.906 Y35.892 E68.35433
G1 X34.906 Y43.148 E69.01414
G1 X34.212 Y43.148 E69.07728
G1 X34.212 Y36.556 E69.67671
G1 X33.518 Y37.22 E69.76407
G1 X33.518 Y43.148 E70.30311
G1 X32.824 Y43.148 E70.36625
G1 X32.824 Y37.884 E70.84491
G1 X32.129 Y38.548 E70.93227
G1 X32.129 Y43.148 E71.35056
G1 X31.596 Y43.148 E71.39905
G1 X31.596 Y47.144 E71.76243
G1 X32.129 Y47.144 E71.81093
G1 X32.129 Y53.087 E72.35131
G1 X32.823 Y53.813 E72.44265
G1 X32.824 Y47.144 E73.04904
G1 X33.518 Y47.144 E73.11217
G1 X33.518 Y54.539 E73.78458
G1 X34.212 Y55.265 E73.87592
G1 X34.212 Y47.144 E74.61433
G1 X34.431 Y47.144 E74.63427
G1 X34.431 Y49.98 E74.89211
G1 X34.906 Y49.98 E74.93531
G1 X34.906 Y55.991 E75.48189
G1 X35.601 Y56.717 E75.57324
G1 X35.601 Y49.98 E76.18583
G1 X36.295 Y49.98 E76.24897
G1 X36.295 Y57.443 E76.92757
G1 X36.989 Y58.169 E77.01892
G1 X36.989 Y49.98 E77.76354
G1 X37.267 Y49.98 E77.78878
G1 X37.267 Y52.816 E78.04662
G1 X37.684 Y52.816 E78.08451
G1 X37.684 Y58.895 E78.63731
G1 X38.378 Y59.621 E78.72865
G1 X38.378 Y52.816 E79.34745
G1 X39.072 Y52.816 E79.41059
G1 X39.072 Y60.347 E80.0954
G1 X39.767 Y61.073 E80.18674
G1 X39.767 Y52.816 E80.93757
G1 X40.103 Y52.816 E80.96812
G1 X40.103 Y55.651 E81.22596
G1 X40.461 Y55.651 E81.25855
G1 X40.461 Y61.799 E81.81754
G1 X41.155 Y62.525 E81.90889
G1 X41.155 Y55.651 E82.5339
G1 X41.85 Y55.651 E82.59703
G1 X41.85 Y63.251 E83.28805
G1 X42.544 Y63.977 E83.37939
G1 X42.544 Y55.651 E84.13643
G1 X42.938 Y55.651 E84.17228
G1 X42.938 Y58.487 E84.43012
G1 X43.238 Y58.487 E84.4574
G1 X43.238 Y64.703 E85.02261
G1 X43.933 Y65.429 E85.11395
G1 X43.933 Y58.487 E85.74517
G1 X44.627 Y58.487 E85.8083
G1 X44.627 Y66.155 E86.50553
G1 X45.321 Y66.881 E86.59687
G1 X45.321 Y58.487 E87.36011
G1 X45.774 Y58.487 E87.40127
G1 X45.774 Y61.322 E87.65911
G1 X46.016 Y61.322 E87.68109
G1 X46.016 Y67.606 E88.2525
G1 X46.71 Y68.332 E88.34384
G1 X46.71 Y61.322 E88.98127
G1 X47.404 Y61.322 E89.0444
G1 X47.404 Y69.058 E89.74783
G1 X48.099 Y69.784 E89.83918
G1 X48.099 Y61.322 E90.60862
G1 X48.61 Y61.322 E90.65509
G1 X48.61 Y66.994 E91.17077
G1 X48.793 Y66.994 E91.18744
G1 X48.793 Y70.51 E91.50722
G1 X49.487 Y71.236 E91.59856
G1 X49.487 Y66.994 E91.98435
G1 X50.182 Y66.994 E92.04748
G1 X50.182 Y71.962 E92.49928
G1 X50.876 Y72.688 E92.59062
G1 X50.876 Y66.994 E93.10844
G1 X51.445 Y66.994 E93.1602
G1 X51.445 Y69.829 E93.41804
G1 X51.57 Y69.829 E93.42941
G1 X51.57 Y73.414 E93.75539
G1 X52.264 Y74.14 E93.84674
G1 X52.264 Y69.829 E94.23873
G1 X52.959 Y69.829 E94.30187
G1 X52.959 Y74.866 E94.75987
G1 X53.653 Y75.592 E94.85121
G1 X53.653 Y69.829 E95.37523
G1 X54.281 Y69.829 E95.4323
G1 X54.281 Y72.665 E95.69014
G1 X54.347 Y72.665 E95.69621
G1 X54.347 Y76.318 E96.0284
G1 X55.042 Y77.044 E96.11974
G1 X55.042 Y72.665 E96.51794
G1 X55.736 Y72.665 E96.58107
G1 X55.736 Y77.77 E97.04529
G1 X56.43 Y78.496 E97.13663
G1 X56.43 Y72.665 E97.66686
G1 X57.116 Y72.665 E97.72923
G1 X57.125 Y79.222 E98.32547
G1 X57.819 Y79.948 E98.41681
G1 X57.819 Y75.5 E98.82122
G1 X58.513 Y75.5 E98.88435
G1 X58.513 Y80.674 E99.35477
G1 X59.208 Y81.4 E99.44611
G1 X59.208 Y75.5 E99.98255
G1 X59.902 Y75.5 E100.04568
G1 X59.902 Y82.126 E100.64812
G1 X60.596 Y82.852 E100.73947
G1 X60.596 Y78.336 E101.15008
G1 X61.291 Y78.336 E101.21321
G1 X61.291 Y83.578 E101.68984
G1 X61.985 Y84.304 E101.78118
G1 X61.985 Y78.336 E102.32382
G1 X62.679 Y78.336 E102.38695
G1 X62.679 Y85.03 E102.9956
G1 X63.374 Y85.756 E103.08695
G1 X63.374 Y81.172 E103.50377
G1 X64.068 Y81.172 E103.5669
G1 X64.068 Y86.482 E104.04973
G1 X64.762 Y87.208 E104.14108
G1 X64.762 Y81.172 E104.68992
G1 X65.457 Y81.172 E104.75306
G1 X65.457 Y87.934 E105.36791
G1 X66.151 Y88.66 E105.45926
G1 X66.151 Y84.007 E105.88228
G1 X66.845 Y84.007 E105.94542
G1 X66.845 Y89.386 E106.43446
G1 X67.54 Y90.112 E106.5258
G1 X67.54 Y84.007 E107.08085
G1 X68.234 Y84.007 E107.14398
G1 X68.234 Y90.837 E107.76505
G1 X68.928 Y91.563 E107.85639
G1 X68.928 Y86.843 E108.28562
G1 X69.623 Y86.843 E108.34876
G1 X69.623 Y92.289 E108.844
G1 X70.317 Y93.015 E108.93535
G1 X70.317 Y86.843 E109.4966
G1 X71.011 Y86.843 E109.55974
G1 X71.011 Y93.741 E110.18701
G1 X71.705 Y94.467 E110.27835
G1 X71.705 Y89.679 E110.71379
G1 X72.4 Y89.679 E110.77693
G1 X72.4 Y95.193 E111.27838
G1 X73.094 Y95.919 E111.36972
G1 X73.094 Y89.679 E111.93718
G1 X73.788 Y89.679 E112.00032
G1 X73.788 Y96.645 E112.6338
G1 X74.483 Y97.371 E112.72514
G1 X74.483 Y92.514 E113.16678
G1 X75.177 Y92.514 E113.22992
G1 X75.177 Y98.097 E113.73758
G1 X75.871 Y98.823 E113.82892
G1 X75.871 Y92.514 E114.40259
G1 X76.566 Y92.514 E114.46573
G1 X76.566 Y99.549 E115.10541
G1 X77.26 Y100.275 E115.19675
G1 X77.26 Y95.35 E115.6446
G1 X77.954 Y95.35 E115.70774
G1 X77.954 Y101.001 E116.2216
G1 X78.649 Y101.727 E116.31295
G1 X78.649 Y95.35 E116.89282
G1 X79.343 Y95.35 E116.95596
G1 X79.343 Y102.453 E117.60185
G1 X80.037 Y103.179 E117.69319
G1 X80.037 Y98.185 E118.14725
G1 X80.732 Y98.185 E118.21039
G1 X80.732 Y103.905 E118.73046
G1 X81.426 Y104.631 E118.8218
G1 X81.426 Y98.185 E119.40788
G1 X82.12 Y98.185 E119.47102
G1 X82.12 Y105.357 E120.12311
G1 X82.815 Y106.083 E120.21446
G1 X82.815 Y101.021 E120.67472
G1 X83.509 Y101.021 E120.73786
G1 X83.509 Y106.809 E121.26414
