; generated by PrusaSlicer 2.4.2+win64 on 2022-07-06 at 17:43:36 UTC

; 

; external perimeters extrusion width = 0.45mm
; perimeters extrusion width = 0.45mm
; infill extrusion width = 0.45mm
; solid infill extrusion width = 0.45mm
; top infill extrusion width = 0.40mm
; support material extrusion width = 0.40mm
; first layer extrusion width = 0.70mm

M107
M104 S200 ; set temperature
;TYPE:Custom
G28 ; home all axes
G1 Z5 F5000 ; lift nozzle
M109 S200 ; set temperature and wait for it to be reached
G21 ; set units to millimeters
G90 ; use absolute coordinates
M82 ; use absolute distances for extrusion
G92 E0
; Filament gcode
M107
;LAYER_CHANGE
;Z:0.35
;HEIGHT:0.35
G1 Z.35 F7800
G1 E-2 F2400
G92 E0
G1 X84.571 Y80.998 F7800
G1 E2 F2400
;TYPE:Skirt/Brim
;WIDTH:0.7
G1 F1800
G1 X85.606 Y80.115 E2.1237
G1 X86.415 Y79.551 E2.21337
G1 X87.361 Y79.007 E2.31255
G1 X88.569 Y78.465 E2.433
G1 X89.504 Y78.15 E2.52268
G1 X90.829 Y77.842 E2.64638
G1 X91.911 Y77.706 E2.74557
G1 X93.236 Y77.672 E2.86604
G1 X94.219 Y77.741 E2.9557
G1 X95.56 Y77.969 E3.07941
G1 X96.578 Y78.25 E3.17536
G1 X97.846 Y78.741 E3.29906
G1 X99.051 Y79.372 E3.42275
G1 X99.876 Y79.913 E3.51243
G1 X100.936 Y80.766 E3.63614
G1 X101.687 Y81.507 E3.73209
G1 X102.328 Y82.256 E3.82174
G1 X103.108 Y83.371 E3.94545
G1 X103.622 Y84.292 E4.0414
G1 X104.163 Y85.541 E4.16508
G1 X104.465 Y86.479 E4.25476
G1 X104.754 Y87.809 E4.37847
G1 X104.873 Y88.857 E4.47442
G1 X104.89 Y90.217 E4.5981
G1 X104.628 Y92.24 E4.78357
G1 X104.38 Y93.194 E4.87322
G1 X103.91 Y94.471 E4.99693
G1 X103.431 Y95.451 E5.09611
G1 X102.734 Y96.578 E5.21658
G1 X101.893 Y97.647 E5.34029
G1 X101.21 Y98.359 E5.42995
G1 X100.418 Y99.056 E5.5259
G1 X99.312 Y99.848 E5.6496
G1 X98.458 Y100.341 E5.73926
G1 X97.219 Y100.903 E5.86297
G1 X96.219 Y101.24 E5.95892
G1 X94.893 Y101.544 E6.08263
G1 X93.541 Y101.695 E6.20634
G1 X92.555 Y101.709 E6.296
G1 X91.199 Y101.596 E6.4197
G1 X90.162 Y101.403 E6.51565
G1 X89.212 Y101.141 E6.60531
G1 X87.941 Y100.654 E6.72902
G1 X86.734 Y100.026 E6.85272
G1 X85.852 Y99.447 E6.94868
G1 X85.076 Y98.839 E7.03833
G1 X84.093 Y97.899 E7.16204
G1 X83.407 Y97.097 E7.25798
G1 X82.631 Y95.98 E7.38169
G1 X82.15 Y95.119 E7.47135
G1 X81.605 Y93.872 E7.59505
G1 X81.273 Y92.833 E7.69425
G1 X80.997 Y91.537 E7.81469
G1 X80.856 Y89.503 E8.00016
G1 X80.954 Y88.146 E8.12386
G1 X81.121 Y87.174 E8.21352
G1 X81.48 Y85.862 E8.33722
G1 X81.86 Y84.877 E8.43317
G1 X82.291 Y83.991 E8.52283
G1 X83.003 Y82.831 E8.64654
G1 X83.665 Y81.965 E8.74571
G1 X84.53 Y81.041 E8.86074
G1 E6.86074 F2400
G92 E0
G1 X91.278 Y87.59 F7800
G1 E2 F2400
;TYPE:Perimeter
G1 F1800
G1 X89.7 Y87.59 E2.14349
G1 X90.063 Y87.141 E2.196
G1 X90.369 Y86.839 E2.23508
G1 X90.721 Y86.563 E2.27578
G1 X91.278 Y86.245 E2.33412
G1 X91.278 Y87.53 E2.45101
G1 X89.903 Y88.215 F7800
G1 F1800
G1 X91.903 Y88.215 E2.63287
G1 X91.903 Y86.215 E2.81473
G1 X94.353 Y86.215 E3.03749
G1 X94.353 Y88.215 E3.21935
G1 X96.353 Y88.215 E3.40121
G1 X96.353 Y90.665 E3.62397
G1 X94.353 Y90.665 E3.80583
G1 X94.353 Y92.165 E3.94222
G1 X91.903 Y92.165 E4.16498
G1 X91.903 Y90.665 E4.30137
G1 X89.903 Y90.665 E4.48323
G1 X89.903 Y88.275 E4.70053
G1 X90.528 Y88.84 F7800
;TYPE:External perimeter
G1 F1800
G1 X92.528 Y88.84 E4.88239
G1 X92.528 Y86.84 E5.06425
G1 X93.728 Y86.84 E5.17337
G1 X93.728 Y88.84 E5.35522
G1 X95.728 Y88.84 E5.53708
G1 X95.728 Y90.04 E5.6462
G1 X93.728 Y90.04 E5.82806
G1 X93.728 Y91.54 E5.96445
G1 X92.528 Y91.54 E6.07357
G1 X92.528 Y90.04 E6.20996
G1 X90.528 Y90.04 E6.39182
G1 X90.528 Y88.9 E6.49548
G1 X90.393 Y88.463 F7800
G1 E4.49548 F2400
G92 E0
G1 X94.978 Y87.59 F7800
G1 E2 F2400
;TYPE:Perimeter
G1 F1800
G1 X94.978 Y86.527 E2.09667
G1 X95.305 Y86.769 E2.13371
G1 X95.62 Y87.062 E2.17279
G1 X96.071 Y87.59 E2.23596
G1 X95.038 Y87.59 E2.32994
G1 E.32994 F2400
G92 E0
G1 X95.038 Y91.29 F7800
G1 E2 F2400
G1 F1800
G1 X96.32 Y91.29 E2.11659
G1 X96.132 Y91.651 E2.15365
G1 X95.765 Y92.158 E2.21048
G1 X95.467 Y92.469 E2.24968
G1 X94.978 Y92.875 E2.30749
G1 X94.978 Y91.29 E2.45163
G1 X94.509 Y92.79 F7800
G1 F1800
G1 X94.571 Y93.088 E2.47935
G1 X94.012 Y93.316 E2.53422
G1 X93.573 Y93.424 E2.57536
G1 X93.147 Y93.478 E2.61443
G1 X92.699 Y93.485 E2.65514
G1 X92.079 Y93.403 E2.71196
G1 X91.664 Y93.288 E2.75117
G1 X91.179 Y93.094 E2.79866
G1 X90.725 Y92.82 E2.84686
G1 X90.369 Y92.541 E2.88799
G1 X90.063 Y92.239 E2.92707
G1 X89.782 Y91.891 E2.96777
G1 X89.429 Y91.29 E3.03116
G1 X91.278 Y91.29 E3.19935
G1 X91.278 Y92.79 E3.33574
G1 X94.449 Y92.79 E3.62405
G1 E1.62405 F2400
G92 E0
G1 X88.756 Y88.099 F7800
G1 E2 F2400
G1 F1800
G1 X88.905 Y87.745 E2.03492
G1 X89.025 Y87.517 E2.05834
G1 X89.284 Y87.111 E2.10213
G1 X89.599 Y86.721 E2.14772
G1 X89.956 Y86.369 E2.19324
G1 X90.358 Y86.054 E2.23974
G1 X90.574 Y85.914 E2.26316
G1 X90.998 Y85.686 E2.30695
G1 X91.476 Y85.494 E2.3538
G1 X91.69 Y85.428 E2.37406
G1 X92.192 Y85.32 E2.42083
G1 X92.701 Y85.269 E2.46734
G1 X92.959 Y85.267 E2.49076
G1 X93.439 Y85.302 E2.53455
G1 X93.946 Y85.396 E2.5814
G1 X94.16 Y85.456 E2.60166
G1 X94.653 Y85.638 E2.64942
G1 X94.886 Y85.748 E2.67284
G1 X95.302 Y85.99 E2.71663
G1 X95.706 Y86.288 E2.76222
G1 X96.072 Y86.629 E2.80774
G1 X96.397 Y87.01 E2.85325
G1 X96.677 Y87.424 E2.89876
G1 X96.915 Y87.88 E2.94553
G1 X97.006 Y88.096 E2.96678
G1 X97.095 Y88.352 E2.99146
G1 X97.215 Y88.819 E3.03525
G1 X97.286 Y89.315 E3.08084
G1 X97.3 Y89.829 E3.12761
G1 X97.288 Y90.052 E3.14787
G1 X97.215 Y90.561 E3.19464
G1 X97.089 Y91.045 E3.24015
G1 X96.909 Y91.512 E3.28567
G1 X96.672 Y91.966 E3.33217
G1 X96.533 Y92.182 E3.35559
G1 X96.24 Y92.565 E3.39939
G1 X95.893 Y92.927 E3.44498
G1 X95.5 Y93.254 E3.49148
G1 X95.288 Y93.4 E3.5149
G1 X94.87 Y93.64 E3.55869
G1 X94.398 Y93.845 E3.60554
G1 X94.187 Y93.916 E3.6258
G1 X93.687 Y94.039 E3.67257
G1 X93.191 Y94.103 E3.71808
G1 X92.679 Y94.11 E3.76459
G1 X92.423 Y94.09 E3.78801
G1 X91.947 Y94.015 E3.8318
G1 X91.464 Y93.881 E3.87739
G1 X90.999 Y93.695 E3.92291
G1 X90.547 Y93.45 E3.96967
G1 X90.36 Y93.328 E3.98994
G1 X89.956 Y93.011 E4.0367
G1 X89.599 Y92.659 E4.08222
G1 X89.278 Y92.261 E4.12872
G1 X89.135 Y92.047 E4.15214
G1 X88.901 Y91.626 E4.19593
G1 X88.707 Y91.164 E4.24153
G1 X88.564 Y90.673 E4.28803
G1 X88.515 Y90.42 E4.31145
G1 X88.462 Y89.941 E4.35524
G1 X88.462 Y89.44 E4.40083
G1 X88.52 Y88.929 E4.4476
G1 X88.564 Y88.71 E4.46787
G1 X88.733 Y88.154 E4.52073
G1 X88.18 Y87.858 F7800
;TYPE:External perimeter
G1 F1800
G1 X88.339 Y87.477 E4.55823
G1 X88.485 Y87.202 E4.58653
G1 X88.776 Y86.746 E4.63579
G1 X89.135 Y86.301 E4.68777
G1 X89.542 Y85.9 E4.73972
G1 X89.995 Y85.545 E4.79203
G1 X90.256 Y85.376 E4.82032
G1 X90.733 Y85.119 E4.86958
G1 X91.268 Y84.904 E4.92201
G1 X91.532 Y84.823 E4.9471
G1 X92.095 Y84.702 E4.9995
G1 X92.668 Y84.645 E5.05181
G1 X92.979 Y84.642 E5.08011
G1 X93.519 Y84.681 E5.12937
G1 X94.086 Y84.787 E5.1818
G1 X94.352 Y84.86 E5.20688
G1 X94.896 Y85.061 E5.25964
G1 X95.177 Y85.195 E5.28794
G1 X95.646 Y85.467 E5.3372
G1 X96.106 Y85.807 E5.38918
G1 X96.524 Y86.196 E5.44113
G1 X96.895 Y86.63 E5.49308
G1 X97.215 Y87.104 E5.54504
G1 X97.482 Y87.615 E5.59744
G1 X97.59 Y87.873 E5.62288
G1 X97.693 Y88.171 E5.65163
G1 X97.829 Y88.696 E5.70089
G1 X97.909 Y89.262 E5.75287
G1 X97.926 Y89.838 E5.80527
G1 X97.91 Y90.113 E5.83036
G1 X97.829 Y90.684 E5.88276
G1 X97.685 Y91.237 E5.93471
G1 X97.479 Y91.77 E5.98667
G1 X97.213 Y92.28 E6.03897
G1 X97.045 Y92.542 E6.06727
G1 X96.716 Y92.972 E6.11653
G1 X96.32 Y93.385 E6.16851
G1 X95.878 Y93.752 E6.22082
G1 X95.621 Y93.929 E6.24911
G1 X95.152 Y94.199 E6.29837
G1 X94.623 Y94.429 E6.3508
G1 X94.362 Y94.517 E6.37589
G1 X93.802 Y94.654 E6.42829
G1 X93.235 Y94.727 E6.48025
G1 X92.66 Y94.735 E6.53255
G1 X92.35 Y94.711 E6.56085
G1 X91.815 Y94.626 E6.61011
G1 X91.264 Y94.474 E6.66209
G1 X90.733 Y94.261 E6.71404
G1 X90.226 Y93.987 E6.76644
G1 X89.996 Y93.836 E6.79153
G1 X89.542 Y93.481 E6.84393
G1 X89.135 Y93.079 E6.89589
G1 X88.774 Y92.632 E6.94819
G1 X88.601 Y92.373 E6.97649
G1 X88.338 Y91.9 E7.02575
G1 X88.117 Y91.372 E7.07773
G1 X87.956 Y90.82 E7.13004
G1 X87.897 Y90.514 E7.15833
G1 X87.837 Y89.976 E7.20759
G1 X87.837 Y89.404 E7.25957
G1 X87.902 Y88.832 E7.31197
G1 X87.956 Y88.561 E7.33706
G1 X88.157 Y87.913 E7.39876
G1 X88.574 Y87.791 F7800
G1 X89.316 Y88.226
;TYPE:Gap fill
;WIDTH:0.723202
G1 F1800
G1 X89.362 Y87.903 E7.42955
G1 X89.316 Y88.226 F7800
;WIDTH:0.841482
G1 F1800
G1 X89.208 Y89.037 E7.52077
;WIDTH:0.866638
G1 X89.195 Y89.259 E7.54638
;WIDTH:0.891795
G1 X89.182 Y89.481 E7.5728
;WIDTH:0.891797
G1 X89.182 Y89.901 E7.62275
G1 X89.206 Y90.314 E7.67193
;WIDTH:0.845697
G1 X89.225 Y90.513 E7.69429
;WIDTH:0.807419
G1 X89.291 Y90.977 E7.74431
G1 E5.74431 F2400
G92 E0
G1 X91.591 Y85.845 F7800
G1 E2 F2400
;WIDTH:0.249569
G1 F1800
G1 X91.79 Y85.816 E2.00512
;WIDTH:0.283087
G1 X91.948 Y85.799 E2.00991
;WIDTH:0.316605
G1 X92.105 Y85.782 E2.01547
;WIDTH:0.350123
G1 X92.262 Y85.765 E2.0218
;WIDTH:0.396167
G1 X92.727 Y85.742 E2.04352
;WIDTH:0.397955
G1 X92.944 Y85.741 E2.05371
;WIDTH:0.397954
G1 X93.381 Y85.757 E2.07425
;WIDTH:0.36626
G1 X93.617 Y85.779 E2.08429
;WIDTH:0.322715
G1 X93.853 Y85.801 E2.09283
;WIDTH:0.279171
G1 X93.947 Y85.813 E2.09566
;WIDTH:0.253654
G1 X94.041 Y85.826 E2.09813
;WIDTH:0.228138
G1 X94.158 Y85.847 E2.10079
;WIDTH:0.193624
G1 X94.276 Y85.868 E2.10284
G1 E.10284 F2400
G92 E0
G1 X96.701 Y88.277 F7800
G1 E2 F2400
;WIDTH:0.207579
G1 F1800
G1 X96.732 Y88.462 E2.00362
;WIDTH:0.245052
G1 X96.75 Y88.609 E2.0073
;WIDTH:0.282525
G1 X96.769 Y88.757 E2.01178
;WIDTH:0.319999
G1 X96.788 Y88.904 E2.01707
;WIDTH:0.35194
G1 X96.804 Y89.129 E2.02617
;WIDTH:0.383881
G1 X96.82 Y89.355 E2.03632
;WIDTH:0.397121
G1 X96.826 Y89.822 E2.05824
;WIDTH:0.397123
G1 X96.821 Y90.005 E2.06681
;WIDTH:0.386773
G1 X96.805 Y90.24 E2.07749
;WIDTH:0.353473
G1 X96.788 Y90.475 E2.08703
;WIDTH:0.320173
G1 X96.767 Y90.642 E2.09305
;WIDTH:0.28298
G1 X96.745 Y90.81 E2.09816
;WIDTH:0.245786
G1 X96.724 Y90.977 E2.10235
;LAYER_CHANGE
;Z:0.65
;HEIGHT:0.3
G1 Z.65 F7800
G1 E.10235 F2400
G92 E0
G1 X89.882 Y88.194 F7800
G1 E2 F2400
;TYPE:Perimeter
;WIDTH:0.45
G1 F900
G1 X91.882 Y88.194 E2.09619
G1 X91.882 Y86.194 E2.19239
G1 X94.374 Y86.194 E2.31227
G1 X94.374 Y88.194 E2.40846
G1 X96.374 Y88.194 E2.50465
G1 X96.374 Y90.686 E2.62453
G1 X94.374 Y90.686 E2.72073
G1 X94.374 Y92.186 E2.79287
G1 X91.882 Y92.186 E2.91275
G1 X91.882 Y90.686 E2.9849
G1 X89.882 Y90.686 E3.08109
G1 X89.882 Y88.254 E3.19808
G1 X90.268 Y88.579 F7800
G1 F900
G1 X92.268 Y88.579 E3.29428
G1 X92.268 Y86.579 E3.39047
G1 X93.989 Y86.579 E3.47325
G1 X93.989 Y88.579 E3.56945
G1 X95.989 Y88.579 E3.66564
G1 X95.989 Y90.301 E3.74843
G1 X93.989 Y90.301 E3.84462
G1 X93.989 Y91.801 E3.91676
G1 X92.268 Y91.801 E3.99955
G1 X92.268 Y90.301 E4.0717
G1 X90.268 Y90.301 E4.16789
G1 X90.268 Y88.639 E4.24779
G1 X90.653 Y88.965 F7800
;TYPE:External perimeter
G1 F900
G1 X92.653 Y88.965 E4.34398
G1 X92.653 Y86.965 E4.44017
G1 X93.603 Y86.965 E4.48587
G1 X93.603 Y88.965 E4.58206
G1 X95.603 Y88.965 E4.67825
G1 X95.603 Y89.915 E4.72395
G1 X93.603 Y89.915 E4.82014
G1 X93.603 Y91.415 E4.89228
G1 X92.653 Y91.415 E4.93797
G1 X92.653 Y89.915 E5.01012
G1 X90.653 Y89.915 E5.10631
G1 X90.653 Y89.025 E5.14912
G1 X90.506 Y88.593 F7800
G1 E3.14912 F2400
G92 E0
G1 X88.776 Y88.107 F7800
G1 E2 F2400
;TYPE:Perimeter
G1 F900
G1 X88.92 Y87.764 E2.01789
G1 X89.166 Y87.323 E2.04218
G1 X89.349 Y87.061 E2.05757
G1 X89.613 Y86.737 E2.07765
G1 X89.975 Y86.381 E2.10208
G1 X90.224 Y86.18 E2.11747
G1 X90.568 Y85.943 E2.13755
G1 X91.008 Y85.705 E2.16164
G1 X91.477 Y85.516 E2.18594
G1 X91.784 Y85.427 E2.20133
G1 X92.193 Y85.341 E2.22141
G1 X92.698 Y85.291 E2.24584
G1 X93.018 Y85.291 E2.26123
G1 X93.434 Y85.323 E2.2813
G1 X93.927 Y85.415 E2.3054
G1 X94.417 Y85.565 E2.33003
G1 X94.635 Y85.652 E2.34134
G1 X94.848 Y85.752 E2.35265
G1 X95.291 Y86.008 E2.37729
G1 X95.692 Y86.305 E2.40124
G1 X96.056 Y86.644 E2.4252
G1 X96.38 Y87.023 E2.44916
G1 X96.659 Y87.435 E2.47312
G1 X96.896 Y87.889 E2.49775
G1 X96.984 Y88.1 E2.50872
G1 X97.091 Y88.416 E2.52479
G1 X97.194 Y88.821 E2.54487
G1 X97.264 Y89.317 E2.56896
G1 X97.279 Y89.829 E2.5936
G1 X97.266 Y90.049 E2.60423
G1 X97.194 Y90.557 E2.62886
G1 X97.069 Y91.039 E2.65282
G1 X96.89 Y91.503 E2.67678
G1 X96.656 Y91.951 E2.70107
G1 X96.48 Y92.219 E2.71646
G1 X96.226 Y92.549 E2.73654
G1 X95.879 Y92.911 E2.76063
G1 X95.485 Y93.238 E2.78527
G1 X95.304 Y93.365 E2.7959
G1 X94.86 Y93.621 E2.82054
G1 X94.403 Y93.82 E2.84449
G1 X93.92 Y93.968 E2.86879
G1 X93.607 Y94.031 E2.88418
G1 X93.192 Y94.081 E2.90426
G1 X92.691 Y94.088 E2.92835
G1 X92.189 Y94.038 E2.95265
G1 X91.875 Y93.975 E2.96803
G1 X91.473 Y93.862 E2.98811
G1 X90.995 Y93.67 E3.01288
G1 X90.798 Y93.571 E3.02351
G1 X90.362 Y93.302 E3.04815
G1 X89.97 Y92.995 E3.07211
G1 X89.615 Y92.645 E3.09606
G1 X89.298 Y92.252 E3.12036
G1 X89.122 Y91.984 E3.13575
G1 X88.921 Y91.619 E3.15583
G1 X88.727 Y91.157 E3.17992
G1 X88.588 Y90.678 E3.20388
G1 X88.504 Y90.187 E3.22784
G1 X88.475 Y89.676 E3.25247
G1 X88.481 Y89.455 E3.2631
G1 X88.54 Y88.939 E3.28808
G1 X88.608 Y88.626 E3.30346
G1 X88.753 Y88.162 E3.32685
G1 X88.42 Y87.958 F7800
G1 F900
G1 X88.572 Y87.595 E3.34579
G1 X88.839 Y87.118 E3.37205
G1 X89.041 Y86.828 E3.38907
G1 X89.328 Y86.477 E3.41086
G1 X89.718 Y86.093 E3.43721
G1 X89.993 Y85.87 E3.45422
G1 X90.366 Y85.613 E3.47601
G1 X90.844 Y85.355 E3.50215
G1 X91.351 Y85.151 E3.52842
G1 X91.691 Y85.053 E3.54543
G1 X92.134 Y84.96 E3.56722
G1 X92.679 Y84.906 E3.59357
G1 X93.033 Y84.906 E3.61059
G1 X93.485 Y84.94 E3.63237
G1 X94.019 Y85.04 E3.65851
G1 X94.545 Y85.201 E3.68499
G1 X94.789 Y85.299 E3.69761
G1 X95.026 Y85.41 E3.71023
G1 X95.503 Y85.685 E3.73671
G1 X95.939 Y86.007 E3.76277
G1 X96.335 Y86.377 E3.78883
G1 X96.687 Y86.789 E3.81488
G1 X96.991 Y87.237 E3.84094
G1 X97.245 Y87.725 E3.86742
G1 X97.345 Y87.963 E3.87983
G1 X97.461 Y88.307 E3.89726
G1 X97.573 Y88.746 E3.91905
G1 X97.649 Y89.284 E3.94519
G1 X97.665 Y89.834 E3.97167
G1 X97.651 Y90.088 E3.98387
G1 X97.573 Y90.633 E4.01035
G1 X97.436 Y91.157 E4.03641
G1 X97.241 Y91.662 E4.06247
G1 X96.989 Y92.147 E4.08873
G1 X96.795 Y92.442 E4.10575
G1 X96.518 Y92.801 E4.12754
G1 X96.142 Y93.194 E4.15368
G1 X95.719 Y93.545 E4.18015
G1 X95.511 Y93.691 E4.19236
G1 X95.034 Y93.966 E4.21883
G1 X94.537 Y94.182 E4.24489
G1 X94.015 Y94.342 E4.27116
G1 X93.668 Y94.411 E4.28818
G1 X93.218 Y94.466 E4.30996
G1 X92.675 Y94.474 E4.33611
G1 X92.131 Y94.42 E4.36237
G1 X91.785 Y94.351 E4.37939
G1 X91.349 Y94.228 E4.40117
G1 X90.836 Y94.022 E4.42773
G1 X90.61 Y93.908 E4.43994
G1 X90.141 Y93.619 E4.46641
G1 X89.715 Y93.285 E4.49247
G1 X89.329 Y92.904 E4.51853
G1 X88.986 Y92.479 E4.5448
G1 X88.792 Y92.183 E4.56181
G1 X88.573 Y91.787 E4.5836
G1 X88.363 Y91.285 E4.60974
G1 X88.212 Y90.765 E4.6358
G1 X88.12 Y90.231 E4.66186
G1 X88.089 Y89.681 E4.68834
G1 X88.096 Y89.428 E4.70054
G1 X88.159 Y88.877 E4.72723
G1 X88.234 Y88.531 E4.74424
G1 X88.397 Y88.014 E4.77033
G1 X88.065 Y87.809 F7800
;TYPE:External perimeter
G1 F900
G1 X88.225 Y87.426 E4.79031
G1 X88.511 Y86.914 E4.81855
G1 X88.733 Y86.595 E4.8372
G1 X89.042 Y86.217 E4.86069
G1 X89.461 Y85.805 E4.88896
G1 X89.762 Y85.561 E4.9076
G1 X90.164 Y85.284 E4.9311
G1 X90.68 Y85.005 E4.95929
G1 X91.225 Y84.787 E4.98753
G1 X91.597 Y84.678 E5.00617
G1 X92.075 Y84.578 E5.02966
G1 X92.66 Y84.52 E5.05793
G1 X93.048 Y84.52 E5.07657
G1 X93.535 Y84.557 E5.10007
G1 X94.111 Y84.664 E5.12826
G1 X94.674 Y84.837 E5.15657
G1 X94.943 Y84.945 E5.17051
G1 X95.205 Y85.068 E5.18444
G1 X95.715 Y85.362 E5.21276
G1 X96.186 Y85.71 E5.24092
G1 X96.614 Y86.11 E5.26908
G1 X96.995 Y86.555 E5.29724
G1 X97.322 Y87.04 E5.3254
G1 X97.595 Y87.561 E5.35372
G1 X97.706 Y87.827 E5.36757
G1 X97.831 Y88.198 E5.38637
G1 X97.951 Y88.671 E5.40986
G1 X98.034 Y89.251 E5.43806
G1 X98.051 Y89.84 E5.46637
G1 X98.035 Y90.126 E5.48015
G1 X97.952 Y90.709 E5.50846
G1 X97.804 Y91.275 E5.53663
G1 X97.593 Y91.822 E5.56479
G1 X97.322 Y92.342 E5.59302
G1 X97.109 Y92.666 E5.61167
G1 X96.811 Y93.053 E5.63516
G1 X96.405 Y93.476 E5.66335
G1 X95.953 Y93.853 E5.69167
G1 X95.718 Y94.016 E5.70545
G1 X95.208 Y94.311 E5.73376
G1 X94.671 Y94.544 E5.76192
