; generated by PrusaSlicer 2.4.2+win64 on 2022-07-06 at 16:39:07 UTC

; 

; external perimeters extrusion width = 0.45mm
; perimeters extrusion width = 0.45mm
; infill extrusion width = 0.45mm
; solid infill extrusion width = 0.45mm
; top infill extrusion width = 0.40mm
; support material extrusion width = 0.40mm
; first layer extrusion width = 0.70mm

M107
M104 S200 ; set temperature
;TYPE:Custom
G28 ; home all axes
G1 Z5 F5000 ; lift nozzle
M109 S200 ; set temperature and wait for it to be reached
G21 ; set units to millimeters
G90 ; use absolute coordinates
M82 ; use absolute distances for extrusion
G92 E0
; Filament gcode
M107
;LAYER_CHANGE
;Z:0.35
;HEIGHT:0.35
G1 Z.35 F7800
G1 E-2 F2400
G92 E0
G1 X79.704 Y79.352 F7800
G1 E2 F2400
;TYPE:Skirt/Brim
;WIDTH:0.7
G1 F1800
G1 X82.539 Y76.517 E2.36464
G1 X84.417 Y75.2 E2.57319
G1 X87.224 Y74.576 E2.83461
G1 X98.53 Y74.576 E3.86272
G1 X100.789 Y74.973 E4.07127
G1 X103.215 Y76.517 E4.3327
G1 X106.051 Y79.352 E4.69734
G1 X107.367 Y81.23 E4.90588
G1 X107.991 Y84.037 E5.16731
G1 X107.991 Y95.343 E6.19542
G1 X107.594 Y97.602 E6.40396
G1 X106.451 Y99.59 E6.6125
G1 X104.698 Y101.07 E6.82105
G1 X102.546 Y101.862 E7.02959
G1 X101.366 Y101.968 E7.1373
G1 X94.503 Y101.936 E7.76134
G1 X91.199 Y101.596 E8.06333
G1 X89.504 Y101.231 E8.22106
G1 X82.256 Y98.78 E8.91673
G1 X80.245 Y97.678 E9.12527
G1 X78.731 Y95.955 E9.33381
G1 X77.894 Y93.82 E9.54235
G1 X77.763 Y92.508 E9.66224
G1 X77.763 Y84.037 E10.4325
G1 X78.16 Y81.778 E10.64105
G1 X79.671 Y79.403 E10.89702
G1 E8.89702 F2400
G92 E0
G1 X98.53 Y84.037 F7800
G1 E2 F2400
;TYPE:Support material
G1 F1800
G1 X101.366 Y84.037 E2.25784
G1 X101.366 Y95.343 E3.28595
G1 X95.159 Y95.343 E3.85039
G1 X95.125 Y95.224 E3.86165
G1 X95.575 Y95.022 E3.90657
G1 X96.147 Y94.692 E3.96657
G1 X96.438 Y94.489 E3.99879
G1 X96.945 Y94.067 E4.05879
G1 X97.424 Y93.568 E4.12174
G1 X97.824 Y93.043 E4.18174
G1 X98.014 Y92.744 E4.21397
G1 X98.319 Y92.159 E4.27397
G1 X98.456 Y91.832 E4.3062
G1 X98.646 Y91.246 E4.36222
G1 X98.735 Y90.874 E4.39694
G1 X98.795 Y90.525 E4.42917
G1 X98.848 Y89.911 E4.48519
G1 X98.831 Y89.175 E4.55211
G1 X98.738 Y88.522 E4.6121
G1 X98.662 Y88.192 E4.64286
G1 X98.563 Y87.852 E4.67508
G1 X98.326 Y87.236 E4.73508
G1 X98.171 Y86.918 E4.76731
G1 X97.833 Y86.351 E4.82731
G1 X97.626 Y86.063 E4.85954
G1 X97.197 Y85.562 E4.91954
G1 X96.945 Y85.313 E4.95176
G1 X96.438 Y84.891 E5.01176
G1 X96.147 Y84.688 E5.04399
G1 X95.614 Y84.379 E5.10001
G1 X94.941 Y84.082 E5.16693
G1 X94.31 Y83.889 E5.22693
G1 X93.963 Y83.814 E5.25915
G1 X93.292 Y83.729 E5.32063
G1 X92.616 Y83.721 E5.38211
G1 X91.944 Y83.789 E5.44358
G1 X91.283 Y83.932 E5.50505
G1 X90.643 Y84.149 E5.56653
G1 X90.031 Y84.437 E5.628
G1 X89.456 Y84.792 E5.68948
G1 X88.924 Y85.21 E5.75096
G1 X88.455 Y85.673 E5.81095
G1 X88.224 Y85.943 E5.84318
G1 X87.839 Y86.479 E5.90318
G1 X87.658 Y86.783 E5.93541
G1 X87.369 Y87.377 E5.9954
G1 X87.242 Y87.707 E6.02763
G1 X87.057 Y88.341 E6.08763
G1 X86.99 Y88.672 E6.11838
G1 X86.94 Y89.023 E6.15061
G1 X86.903 Y89.682 E6.21061
G1 X86.913 Y90.036 E6.24284
G1 X86.988 Y90.692 E6.30284
G1 X87.057 Y91.039 E6.33506
G1 X87.242 Y91.673 E6.39506
G1 X87.369 Y92.004 E6.42729
G1 X87.611 Y92.508 E6.47815
G1 X84.388 Y92.508 E6.77124
G1 X84.388 Y84.037 E7.54151
G1 X87.224 Y84.037 E7.79935
G1 X87.224 Y81.201 E8.05719
G1 X98.53 Y81.201 E9.0853
G1 X98.53 Y83.943 E9.33462
G1 X100.515 Y95.062 F7800
G1 F1800
G1 X100.515 Y84.599 E10.28602
G1 X99.82 Y84.599 E10.34915
G1 X99.82 Y94.781 E11.27499
G1 X99.126 Y94.781 E11.33812
G1 X99.126 Y91.609 E11.62651
G1 X98.984 Y92.027 E11.66658
G1 X98.829 Y92.398 E11.70315
G1 X98.666 Y92.73 E11.73679
G1 X98.432 Y93.136 E11.77942
G1 X98.432 Y94.781 E11.92901
G1 X97.737 Y94.781 E11.99215
G1 X97.737 Y94.06 E12.05769
G1 X97.346 Y94.462 E12.1087
G1 X97.043 Y94.729 E12.14541
G1 X97.043 Y95.062 E12.17571
G1 X99.126 Y89.403 F7800
G1 F1800
G1 X99.126 Y84.599 E12.61253
G1 X98.432 Y84.599 E12.67566
G1 X98.432 Y86.244 E12.82526
G1 X98.088 Y85.741 E12.88063
G1 X97.737 Y85.32 E12.9305
G1 X97.737 Y81.764 E13.25389
G1 X97.043 Y81.764 E13.31702
G1 X97.043 Y84.651 E13.57959
G1 X96.753 Y84.425 E13.61307
G1 X96.349 Y84.152 E13.65737
G1 X96.349 Y81.764 E13.87458
G1 X95.654 Y81.764 E13.93771
G1 X95.654 Y83.774 E14.12051
G1 X94.96 Y83.495 E14.18853
G1 X94.96 Y81.764 E14.346
G1 X94.266 Y81.764 E14.40914
G1 X94.266 Y83.304 E14.5492
G1 X93.571 Y83.192 E14.61315
G1 X93.571 Y81.764 E14.743
G1 X92.877 Y81.764 E14.80613
G1 X92.877 Y83.154 E14.93259
G1 X92.183 Y83.191 E14.99581
G1 X92.183 Y81.764 E15.12557
G1 X91.488 Y81.764 E15.1887
G1 X91.488 Y83.302 E15.3286
G1 X90.794 Y83.494 E15.3941
G1 X90.794 Y81.764 E15.55143
G1 X90.1 Y81.764 E15.61456
G1 X90.1 Y83.772 E15.79723
G1 X89.405 Y84.152 E15.8692
G1 X89.405 Y81.764 E16.08641
G1 X88.711 Y81.764 E16.14954
G1 X88.711 Y84.656 E16.41252
G1 X88.3 Y85.024 E16.4627
G1 X88.017 Y85.319 E16.49993
G1 X88.017 Y81.764 E16.82326
G1 X87.786 Y81.764 E16.84424
G1 X87.786 Y84.599 E17.10208
G1 X87.322 Y84.599 E17.14424
G1 X87.322 Y86.247 E17.29405
G1 X86.993 Y86.844 E17.35612
G1 X86.841 Y87.182 E17.38976
G1 X86.628 Y87.778 E17.44732
G1 X86.628 Y84.599 E17.73637
G1 X85.934 Y84.599 E17.79951
G1 X85.934 Y91.945 E18.4675
G1 X86.628 Y91.945 E18.53063
G1 X86.628 Y89.922 E18.7146
G1 X85.24 Y92.227 F7800
G1 F1800
G1 X85.24 Y84.318 E19.43373
G1 E17.43373 F2400
G92 E0
G1 X91.278 Y87.59 F7800
G1 E2 F2400
;TYPE:Perimeter
G1 F1800
G1 X89.7 Y87.59 E2.14349
G1 X90.063 Y87.141 E2.196
G1 X90.369 Y86.839 E2.23508
G1 X90.721 Y86.563 E2.27578
G1 X91.278 Y86.245 E2.33412
G1 X91.278 Y87.53 E2.45101
G1 X89.903 Y88.215 F7800
G1 F1800
G1 X91.903 Y88.215 E2.63287
G1 X91.903 Y86.215 E2.81473
G1 X94.353 Y86.215 E3.03749
G1 X94.353 Y88.215 E3.21935
G1 X96.353 Y88.215 E3.40121
G1 X96.353 Y90.665 E3.62397
G1 X94.353 Y90.665 E3.80583
G1 X94.353 Y92.165 E3.94222
G1 X91.903 Y92.165 E4.16498
G1 X91.903 Y90.665 E4.30137
G1 X89.903 Y90.665 E4.48323
G1 X89.903 Y88.275 E4.70053
G1 X90.528 Y88.84 F7800
;TYPE:External perimeter
G1 F1800
G1 X92.528 Y88.84 E4.88239
G1 X92.528 Y86.84 E5.06425
G1 X93.728 Y86.84 E5.17337
G1 X93.728 Y88.84 E5.35522
G1 X95.728 Y88.84 E5.53708
G1 X95.728 Y90.04 E5.6462
G1 X93.728 Y90.04 E5.82806
G1 X93.728 Y91.54 E5.96445
G1 X92.528 Y91.54 E6.07357
G1 X92.528 Y90.04 E6.20996
G1 X90.528 Y90.04 E6.39182
G1 X90.528 Y88.9 E6.49548
G1 X90.393 Y88.463 F7800
G1 E4.49548 F2400
G92 E0
G1 X94.978 Y87.59 F7800
G1 E2 F2400
;TYPE:Perimeter
G1 F1800
G1 X94.978 Y86.527 E2.09667
G1 X95.305 Y86.769 E2.13371
G1 X95.62 Y87.062 E2.17279
G1 X96.071 Y87.59 E2.23596
G1 X95.038 Y87.59 E2.32994
G1 E.32994 F2400
G92 E0
G1 X95.038 Y91.29 F7800
G1 E2 F2400
G1 F1800
G1 X96.32 Y91.29 E2.11659
G1 X96.132 Y91.651 E2.15365
G1 X95.765 Y92.158 E2.21048
G1 X95.467 Y92.469 E2.24968
G1 X94.978 Y92.875 E2.30749
G1 X94.978 Y91.29 E2.45163
G1 X94.509 Y92.79 F7800
G1 F1800
G1 X94.571 Y93.088 E2.47935
G1 X94.012 Y93.316 E2.53422
G1 X93.573 Y93.424 E2.57536
G1 X93.147 Y93.478 E2.61443
G1 X92.699 Y93.485 E2.65514
G1 X92.079 Y93.403 E2.71196
G1 X91.664 Y93.288 E2.75117
G1 X91.179 Y93.094 E2.79866
G1 X90.725 Y92.82 E2.84686
G1 X90.369 Y92.541 E2.88799
G1 X90.063 Y92.239 E2.92707
G1 X89.782 Y91.891 E2.96777
G1 X89.429 Y91.29 E3.03116
G1 X91.278 Y91.29 E3.19935
G1 X91.278 Y92.79 E3.33574
G1 X94.449 Y92.79 E3.62405
G1 E1.62405 F2400
G92 E0
G1 X88.756 Y88.099 F7800
G1 E2 F2400
G1 F1800
G1 X88.905 Y87.745 E2.03492
G1 X89.025 Y87.517 E2.05834
G1 X89.284 Y87.111 E2.10213
G1 X89.599 Y86.721 E2.14772
G1 X89.956 Y86.369 E2.19324
G1 X90.358 Y86.054 E2.23974
G1 X90.574 Y85.914 E2.26316
G1 X90.998 Y85.686 E2.30695
G1 X91.476 Y85.494 E2.3538
G1 X91.69 Y85.428 E2.37406
G1 X92.192 Y85.32 E2.42083
G1 X92.701 Y85.269 E2.46734
G1 X92.959 Y85.267 E2.49076
G1 X93.439 Y85.302 E2.53455
G1 X93.946 Y85.396 E2.5814
G1 X94.16 Y85.456 E2.60166
G1 X94.653 Y85.638 E2.64942
G1 X94.886 Y85.748 E2.67284
G1 X95.302 Y85.99 E2.71663
G1 X95.706 Y86.288 E2.76222
G1 X96.072 Y86.629 E2.80774
G1 X96.397 Y87.01 E2.85325
G1 X96.677 Y87.424 E2.89876
G1 X96.915 Y87.88 E2.94553
G1 X97.006 Y88.096 E2.96678
G1 X97.095 Y88.352 E2.99146
G1 X97.215 Y88.819 E3.03525
G1 X97.286 Y89.315 E3.08084
G1 X97.3 Y89.829 E3.12761
G1 X97.288 Y90.052 E3.14787
G1 X97.215 Y90.561 E3.19464
G1 X97.089 Y91.045 E3.24015
G1 X96.909 Y91.512 E3.28567
G1 X96.672 Y91.966 E3.33217
G1 X96.533 Y92.182 E3.35559
G1 X96.24 Y92.565 E3.39939
G1 X95.893 Y92.927 E3.44498
G1 X95.5 Y93.254 E3.49148
G1 X95.288 Y93.4 E3.5149
G1 X94.87 Y93.64 E3.55869
G1 X94.398 Y93.845 E3.60554
G1 X94.187 Y93.916 E3.6258
G1 X93.687 Y94.039 E3.67257
G1 X93.191 Y94.103 E3.71808
G1 X92.679 Y94.11 E3.76459
G1 X92.423 Y94.09 E3.78801
G1 X91.947 Y94.015 E3.8318
G1 X91.464 Y93.881 E3.87739
G1 X90.999 Y93.695 E3.92291
G1 X90.547 Y93.45 E3.96967
G1 X90.36 Y93.328 E3.98994
G1 X89.956 Y93.011 E4.0367
G1 X89.599 Y92.659 E4.08222
G1 X89.278 Y92.261 E4.12872
G1 X89.135 Y92.047 E4.15214
G1 X88.901 Y91.626 E4.19593
G1 X88.707 Y91.164 E4.24153
G1 X88.564 Y90.673 E4.28803
G1 X88.515 Y90.42 E4.31145
G1 X88.462 Y89.941 E4.35524
G1 X88.462 Y89.44 E4.40083
G1 X88.52 Y88.929 E4.4476
G1 X88.564 Y88.71 E4.46787
G1 X88.733 Y88.154 E4.52073
G1 X88.18 Y87.858 F7800
;TYPE:External perimeter
G1 F1800
G1 X88.339 Y87.477 E4.55823
G1 X88.485 Y87.202 E4.58653
G1 X88.776 Y86.746 E4.63579
G1 X89.135 Y86.301 E4.68777
G1 X89.542 Y85.9 E4.73972
G1 X89.995 Y85.545 E4.79203
G1 X90.256 Y85.376 E4.82032
G1 X90.733 Y85.119 E4.86958
G1 X91.268 Y84.904 E4.92201
G1 X91.532 Y84.823 E4.9471
G1 X92.095 Y84.702 E4.9995
G1 X92.668 Y84.645 E5.05181
G1 X92.979 Y84.642 E5.08011
G1 X93.519 Y84.681 E5.12937
G1 X94.086 Y84.787 E5.1818
G1 X94.352 Y84.86 E5.20688
G1 X94.896 Y85.061 E5.25964
G1 X95.177 Y85.195 E5.28794
G1 X95.646 Y85.467 E5.3372
G1 X96.106 Y85.807 E5.38918
G1 X96.524 Y86.196 E5.44113
G1 X96.895 Y86.63 E5.49308
G1 X97.215 Y87.104 E5.54504
G1 X97.482 Y87.615 E5.59744
G1 X97.59 Y87.873 E5.62288
G1 X97.693 Y88.171 E5.65163
G1 X97.829 Y88.696 E5.70089
G1 X97.909 Y89.262 E5.75287
G1 X97.926 Y89.838 E5.80527
G1 X97.91 Y90.113 E5.83036
G1 X97.829 Y90.684 E5.88276
G1 X97.685 Y91.237 E5.93471
G1 X97.479 Y91.77 E5.98667
G1 X97.213 Y92.28 E6.03897
G1 X97.045 Y92.542 E6.06727
G1 X96.716 Y92.972 E6.11653
G1 X96.32 Y93.385 E6.16851
G1 X95.878 Y93.752 E6.22082
G1 X95.621 Y93.929 E6.24911
G1 X95.152 Y94.199 E6.29837
G1 X94.623 Y94.429 E6.3508
G1 X94.362 Y94.517 E6.37589
G1 X93.802 Y94.654 E6.42829
G1 X93.235 Y94.727 E6.48025
G1 X92.66 Y94.735 E6.53255
G1 X92.35 Y94.711 E6.56085
G1 X91.815 Y94.626 E6.61011
G1 X91.264 Y94.474 E6.66209
G1 X90.733 Y94.261 E6.71404
G1 X90.226 Y93.987 E6.76644
G1 X89.996 Y93.836 E6.79153
G1 X89.542 Y93.481 E6.84393
G1 X89.135 Y93.079 E6.89589
G1 X88.774 Y92.632 E6.94819
G1 X88.601 Y92.373 E6.97649
G1 X88.338 Y91.9 E7.02575
G1 X88.117 Y91.372 E7.07773
G1 X87.956 Y90.82 E7.13004
G1 X87.897 Y90.514 E7.15833
G1 X87.837 Y89.976 E7.20759
G1 X87.837 Y89.404 E7.25957
G1 X87.902 Y88.832 E7.31197
G1 X87.956 Y88.561 E7.33706
G1 X88.157 Y87.913 E7.39876
G1 X88.574 Y87.791 F7800
G1 X89.316 Y88.226
;TYPE:Gap fill
;WIDTH:0.723202
G1 F1800
G1 X89.362 Y87.903 E7.42955
G1 X89.316 Y88.226 F7800
;WIDTH:0.841482
G1 F1800
G1 X89.208 Y89.037 E7.52077
;WIDTH:0.866638
G1 X89.195 Y89.259 E7.54638
;WIDTH:0.891795
G1 X89.182 Y89.481 E7.5728
;WIDTH:0.891797
G1 X89.182 Y89.901 E7.62275
G1 X89.206 Y90.314 E7.67193
;WIDTH:0.845697
G1 X89.225 Y90.513 E7.69429
;WIDTH:0.807419
G1 X89.291 Y90.977 E7.74431
G1 E5.74431 F2400
G92 E0
G1 X91.591 Y85.845 F7800
G1 E2 F2400
;WIDTH:0.249569
G1 F1800
G1 X91.79 Y85.816 E2.00512
;WIDTH:0.283087
G1 X91.948 Y85.799 E2.00991
;WIDTH:0.316605
G1 X92.105 Y85.782 E2.01547
;WIDTH:0.350123
G1 X92.262 Y85.765 E2.0218
;WIDTH:0.396167
G1 X92.727 Y85.742 E2.04352
;WIDTH:0.397955
G1 X92.944 Y85.741 E2.05371
;WIDTH:0.397954
G1 X93.381 Y85.757 E2.07425
;WIDTH:0.36626
G1 X93.617 Y85.779 E2.08429
;WIDTH:0.322715
G1 X93.853 Y85.801 E2.09283
;WIDTH:0.279171
G1 X93.947 Y85.813 E2.09566
;WIDTH:0.253654
G1 X94.041 Y85.826 E2.09813
;WIDTH:0.228138
G1 X94.158 Y85.847 E2.10079
;WIDTH:0.193624
G1 X94.276 Y85.868 E2.10284
G1 E.10284 F2400
G92 E0
G1 X96.701 Y88.277 F7800
G1 E2 F2400
;WIDTH:0.207579
G1 F1800
G1 X96.732 Y88.462 E2.00362
;WIDTH:0.245052
G1 X96.75 Y88.609 E2.0073
;WIDTH:0.282525
G1 X96.769 Y88.757 E2.01178
;WIDTH:0.319999
G1 X96.788 Y88.904 E2.01707
;WIDTH:0.35194
G1 X96.804 Y89.129 E2.02617
;WIDTH:0.383881
G1 X96.82 Y89.355 E2.03632
;WIDTH:0.397121
G1 X96.826 Y89.822 E2.05824
;WIDTH:0.397123
G1 X96.821 Y90.005 E2.06681
;WIDTH:0.386773
G1 X96.805 Y90.24 E2.07749
;WIDTH:0.353473
G1 X96.788 Y90.475 E2.08703
;WIDTH:0.320173
G1 X96.767 Y90.642 E2.09305
;WIDTH:0.28298
G1 X96.745 Y90.81 E2.09816
;WIDTH:0.245786
G1 X96.724 Y90.977 E2.10235
;LAYER_CHANGE
;Z:0.65
;HEIGHT:0.3
G1 Z.65 F7800
G1 E.10235 F2400
G92 E0
G1 X98.516 Y92.443 F7800
G1 E2 F2400
;TYPE:Support material
;WIDTH:0.4
G1 F3600
G1 X98.516 Y91.154 E2.05395
G1 X98.311 Y91.791 E2.08195
G1 X98.184 Y92.095 E2.09575
G1 X97.982 Y92.494 E2.11445
G1 X98.516 Y92.494 E2.13681
G1 X98.516 Y88.226 F7800
G1 F3600
G1 X98.311 Y87.589 E2.16481
G1 X98.184 Y87.285 E2.17861
G1 X97.982 Y86.887 E2.19731
G1 X98.516 Y86.887 E2.21968
G1 X98.516 Y88.176 E2.27363
G1 E.27363 F2400
G92 E0
G1 X95.681 Y84.586 F7800
G1 E2 F2400
G1 F3600
G1 X95.208 Y84.351 E2.0221
G1 X94.902 Y84.228 E2.0359
G1 X94.333 Y84.051 E2.06085
G1 X95.681 Y84.051 E2.11727
G1 X95.681 Y84.535 E2.13754
G1 E.13754 F2400
G92 E0
G1 X91.385 Y84.061 F7800
G1 E2 F2400
G1 F3600
G1 X91.425 Y84.051 E2.00171
G1 X90.074 Y84.051 E2.05829
G1 X90.074 Y84.586 E2.08067
G1 X90.701 Y84.287 E2.10973
G1 X91.337 Y84.073 E2.13783
G1 E.13783 F2400
G92 E0
G1 X87.685 Y87.055 F7800
G1 E2 F2400
G1 F3600
G1 X87.773 Y86.887 E2.00793
G1 X87.238 Y86.887 E2.03033
G1 X87.238 Y88.243 E2.08709
G1 X87.388 Y87.744 E2.1089
G1 X87.662 Y87.099 E2.13823
G1 E.13823 F2400
G92 E0
G1 X89.882 Y88.194 F7800
G1 E2 F2400
;TYPE:Perimeter
;WIDTH:0.45
G1 F900
G1 X91.882 Y88.194 E2.09619
G1 X91.882 Y86.194 E2.19239
G1 X94.374 Y86.194 E2.31227
G1 X94.374 Y88.194 E2.40846
G1 X96.374 Y88.194 E2.50465
G1 X96.374 Y90.686 E2.62453
G1 X94.374 Y90.686 E2.72073
G1 X94.374 Y92.186 E2.79287
G1 X91.882 Y92.186 E2.91275
G1 X91.882 Y90.686 E2.9849
G1 X89.882 Y90.686 E3.08109
G1 X89.882 Y88.254 E3.19808
G1 X90.268 Y88.579 F7800
G1 F900
G1 X92.268 Y88.579 E3.29428
G1 X92.268 Y86.579 E3.39047
G1 X93.989 Y86.579 E3.47325
G1 X93.989 Y88.579 E3.56945
G1 X95.989 Y88.579 E3.66564
G1 X95.989 Y90.301 E3.74843
G1 X93.989 Y90.301 E3.84462
G1 X93.989 Y91.801 E3.91676
G1 X92.268 Y91.801 E3.99955
G1 X92.268 Y90.301 E4.0717
G1 X90.268 Y90.301 E4.16789
G1 X90.268 Y88.639 E4.24779
G1 X90.653 Y88.965 F7800
;TYPE:External perimeter
G1 F900
G1 X92.653 Y88.965 E4.34398
G1 X92.653 Y86.965 E4.44017
G1 X93.603 Y86.965 E4.48587
G1 X93.603 Y88.965 E4.58206
G1 X95.603 Y88.965 E4.67825
G1 X95.603 Y89.915 E4.72395
G1 X93.603 Y89.915 E4.82014
G1 X93.603 Y91.415 E4.89228
G1 X92.653 Y91.415 E4.93797
G1 X92.653 Y89.915 E5.01012
G1 X90.653 Y89.915 E5.10631
G1 X90.653 Y89.025 E5.14912
G1 X90.506 Y88.593 F7800
G1 E3.14912 F2400
G92 E0
G1 X88.776 Y88.107 F7800
G1 E2 F2400
;TYPE:Perimeter
G1 F900
G1 X88.92 Y87.764 E2.01789
G1 X89.166 Y87.323 E2.04218
G1 X89.349 Y87.061 E2.05757
G1 X89.613 Y86.737 E2.07765
G1 X89.975 Y86.381 E2.10208
G1 X90.224 Y86.18 E2.11747
G1 X90.568 Y85.943 E2.13755
G1 X91.008 Y85.705 E2.16164
G1 X91.477 Y85.516 E2.18594
G1 X91.784 Y85.427 E2.20133
G1 X92.193 Y85.341 E2.22141
G1 X92.698 Y85.291 E2.24584
G1 X93.018 Y85.291 E2.26123
G1 X93.434 Y85.323 E2.2813
G1 X93.927 Y85.415 E2.3054
G1 X94.417 Y85.565 E2.33003
G1 X94.635 Y85.652 E2.34134
G1 X94.848 Y85.752 E2.35265
G1 X95.291 Y86.008 E2.37729
G1 X95.692 Y86.305 E2.40124
G1 X96.056 Y86.644 E2.4252
G1 X96.38 Y87.023 E2.44916
G1 X96.659 Y87.435 E2.47312
G1 X96.896 Y87.889 E2.49775
G1 X96.984 Y88.1 E2.50872
G1 X97.091 Y88.416 E2.52479
G1 X97.194 Y88.821 E2.54487
G1 X97.264 Y89.317 E2.56896
G1 X97.279 Y89.829 E2.5936
G1 X97.266 Y90.049 E2.60423
G1 X97.194 Y90.557 E2.62886
G1 X97.069 Y91.039 E2.65282
G1 X96.89 Y91.503 E2.67678
G1 X96.656 Y91.951 E2.70107
G1 X96.48 Y92.219 E2.71646
